; generated by PrusaSlicer 2.1.1 on 2020-12-09 at 19:04:05 UTC

; 

; external perimeters extrusion width = 0.45mm
; perimeters extrusion width = 0.45mm
; infill extrusion width = 0.45mm
; solid infill extrusion width = 0.45mm
; top infill extrusion width = 0.40mm
; first layer extrusion width = 0.42mm

M73 P0 R6
M73 Q0 S6
M201 X1000 Y1000 Z200 E5000 ; sets maximum accelerations, mm/sec^2
M203 X200 Y200 Z12 E120 ; sets maximum feedrates, mm/sec
M204 P1250 R1250 T1250 ; sets acceleration (P, T) and retract acceleration (R), mm/sec^2
M205 X8.00 Y8.00 Z0.40 E4.50 ; sets the jerk limits, mm/sec
M205 S0 T0 ; sets the minimum extruding and travel feed rate, mm/sec
M107
M862.3 P "MK3S" ; printer model check
M862.1 P0.4 ; nozzle diameter check
M115 U3.9.1 ; tell printer latest fw version
G90 ; use absolute coordinates
M83 ; extruder relative mode
M104 S215 ; set extruder temp
M140 S60 ; set bed temp
M190 S60 ; wait for bed temp
M109 S215 ; wait for extruder temp
G28 W ; home all without mesh bed level
G80 ; mesh bed leveling
G1 Y-3.0 F1000.0 ; go outside print area
G92 E0.0
G1 X60.0 E9.0 F1000.0 ; intro line
M73 Q1 S5
M73 P1 R5
G1 X100.0 E12.5 F1000.0 ; intro line
G92 E0.0
M221 S95
G21 ; set units to millimeters
G90 ; use absolute coordinates
M83 ; use relative distances for extrusion
M900 K0.05 ; Filament gcode LA 1.5
M900 K30 ; Filament gcode LA 1.0
;BEFORE_LAYER_CHANGE
G92 E0.0
;0.2


G1 E-0.80000 F2100.00000
G1 Z0.600 F10800.000
;AFTER_LAYER_CHANGE
;0.2
G1 X116.529 Y96.646
G1 Z0.200
G1 E0.80000 F2100.00000
M204 S1000
G1 F1200
G1 X117.438 Y96.437 E0.02924
G1 X132.454 Y96.434 E0.47083
G1 X133.371 Y96.605 E0.02924
G1 X134.163 Y97.090 E0.02912
G1 X134.733 Y97.829 E0.02924
G1 X135.001 Y98.722 E0.02924
G1 X135.012 Y111.138 E0.38931
G1 X134.787 Y112.059 E0.02973
G1 X134.242 Y112.836 E0.02973
G1 X133.471 Y113.354 E0.02912
G1 X132.562 Y113.563 E0.02924
G1 X117.542 Y113.566 E0.47095
G1 X117.035 Y113.513 E0.01598
G1 X116.548 Y113.362 E0.01598
G1 X116.101 Y113.118 E0.01598
G1 X115.714 Y112.792 E0.01586
G1 X115.201 Y112.032 E0.02875
G1 X114.988 Y111.136 E0.02888
G1 X114.984 Y98.992 E0.38077
G1 X115.037 Y98.485 E0.01598
G1 X115.188 Y97.998 E0.01598
G1 X115.432 Y97.551 E0.01598
G1 X115.758 Y97.164 E0.01586
G1 X116.479 Y96.680 E0.02724
G1 F8640
G1 X117.438 Y96.437 E-0.22835
G1 X119.740 Y96.436 E-0.53165
G1 E-0.04000 F2100.00000
G1 Z0.800 F10800.000
G1 X115.541 Y98.133
G1 Z0.200
G1 E0.80000 F2100.00000
G1 F1200
G1 X116.041 Y97.415 E0.02743
G1 X116.697 Y96.984 E0.02462
G1 X117.467 Y96.813 E0.02473
G1 X132.454 Y96.811 E0.46988
G1 X133.243 Y96.960 E0.02518
G1 X133.925 Y97.384 E0.02518
G1 X134.409 Y98.025 E0.02518
G1 X134.629 Y98.793 E0.02507
G1 X134.636 Y111.106 E0.38605
G1 X134.440 Y111.911 E0.02597
G1 X133.959 Y112.585 E0.02597
G1 X133.303 Y113.016 E0.02462
G1 X132.533 Y113.187 E0.02473
G1 X117.543 Y113.189 E0.47000
G1 X116.686 Y113.011 E0.02743
G1 X115.965 Y112.509 E0.02754
G1 X115.536 Y111.856 E0.02451
G1 X115.364 Y111.097 E0.02439
G1 X115.361 Y98.989 E0.37964
G1 X115.528 Y98.191 E0.02555
G1 F8640
G1 X116.041 Y97.415 E-0.21483
G1 X116.697 Y96.984 E-0.18130
G1 X117.467 Y96.813 E-0.18213
G1 X118.255 Y96.813 E-0.18175
G1 E-0.04000 F2100.00000
G1 Z0.800 F10800.000
G1 X120.163 Y100.413
G1 Z0.200
G1 E0.80000 F2100.00000
G1 F1200
G1 X126.337 Y100.413 E0.19359
G1 X126.337 Y109.587 E0.28765
G1 X120.163 Y109.587 E0.19359
G1 X120.163 Y100.473 E0.28577
G1 X120.540 Y100.790 F10800.000
G1 F1200
G1 X125.960 Y100.790 E0.16994
G1 X125.960 Y109.210 E0.26400
G1 X120.540 Y109.210 E0.16994
G1 X120.540 Y100.850 E0.26212
G1 X120.464 Y100.397 F10800.000
G1 F8640
G1 X123.831 Y100.814 E-0.76000
G1 E-0.04000 F2100.00000
G1 Z0.800 F10800.000
G1 X118.137 Y99.587
G1 Z0.200
G1 E0.80000 F2100.00000
G1 F1200
G1 X131.863 Y99.587 E0.43036
G1 X131.863 Y110.413 E0.33944
G1 X118.137 Y110.413 E0.43036
G1 X118.137 Y99.647 E0.33756
G1 X117.760 Y99.210 F10800.000
G1 F1200
G1 X132.240 Y99.210 E0.45401
G1 X132.240 Y110.790 E0.36308
G1 X117.760 Y110.790 E0.45401
G1 X117.760 Y99.270 E0.36120
G1 X118.150 Y99.299 F10800.000
G1 F8640
G1 X121.051 Y99.256 E-0.76000
G1 E-0.04000 F2100.00000
G1 Z0.800 F10800.000
G1 X126.209 Y100.300
G1 Z0.200
G1 E0.80000 F2100.00000
G1 F1200
G1 X125.779 Y99.870 E0.01921
G1 X125.242 Y99.870 E0.01697
G1 X125.502 Y100.130 E0.01163
G1 X124.965 Y100.130 E0.01697
G1 X124.705 Y99.870 E0.01163
G1 X124.168 Y99.870 E0.01697
G1 X124.428 Y100.130 E0.01163
G1 X123.891 Y100.130 E0.01697
G1 X123.630 Y99.870 E0.01163
G1 X123.093 Y99.870 E0.01697
G1 X123.353 Y100.130 E0.01163
G1 X122.816 Y100.130 E0.01697
G1 X122.556 Y99.870 E0.01163
G1 X122.019 Y99.870 E0.01697
G1 X122.279 Y100.130 E0.01163
G1 X121.742 Y100.130 E0.01697
G1 X121.481 Y99.870 E0.01163
G1 X120.944 Y99.870 E0.01697
G1 X121.205 Y100.130 E0.01163
G1 X120.667 Y100.130 E0.01697
G1 X120.407 Y99.870 E0.01163
G1 X119.870 Y99.870 E0.01697
G1 X120.130 Y100.130 E0.01163
G1 X119.880 Y100.130 E0.00789
G1 X119.880 Y100.417 E0.00907
G1 X119.333 Y99.870 E0.02446
G1 X118.795 Y99.870 E0.01697
G1 X119.880 Y100.955 E0.04846
G1 X119.880 Y101.492 E0.01697
G1 X118.420 Y100.032 E0.06523
G1 X118.420 Y100.569 E0.01697
G1 X119.880 Y102.029 E0.06523
G1 X119.880 Y102.566 E0.01697
G1 X118.420 Y101.106 E0.06523
G1 X118.420 Y101.643 E0.01697
G1 X119.880 Y103.103 E0.06523
G1 X119.880 Y103.641 E0.01697
G1 X118.420 Y102.180 E0.06523
G1 X118.420 Y102.718 E0.01697
G1 X119.880 Y104.178 E0.06523
G1 X119.880 Y104.715 E0.01697
G1 X118.420 Y103.255 E0.06523
G1 X118.420 Y103.792 E0.01697
G1 X119.880 Y105.252 E0.06523
G1 X119.880 Y105.790 E0.01697
G1 X118.420 Y104.329 E0.06523
G1 X118.420 Y104.866 E0.01697
G1 X119.880 Y106.327 E0.06523
G1 X119.880 Y106.864 E0.01697
G1 X118.420 Y105.404 E0.06523
G1 X118.420 Y105.941 E0.01697
G1 X119.880 Y107.401 E0.06523
G1 X119.880 Y107.938 E0.01697
G1 X118.420 Y106.478 E0.06523
G1 X118.420 Y107.015 E0.01697
G1 X119.880 Y108.476 E0.06523
G1 X119.880 Y109.013 E0.01697
G1 X118.420 Y107.553 E0.06523
G1 X118.420 Y108.090 E0.01697
G1 X120.460 Y110.130 E0.09114
G1 X119.923 Y110.130 E0.01697
G1 X118.420 Y108.627 E0.06714
G1 X118.420 Y109.164 E0.01697
G1 X119.386 Y110.130 E0.04315
G1 X118.849 Y110.130 E0.01697
G1 X118.250 Y109.532 E0.02673
G1 F8640
G1 X118.849 Y110.130 E-0.19541
G1 X119.386 Y110.130 E-0.12404
G1 X118.420 Y109.164 E-0.31542
G1 X118.420 Y108.627 E-0.12404
G1 X118.423 Y108.630 E-0.00109
G1 E-0.04000 F2100.00000
G1 Z0.800 F10800.000
G1 X120.567 Y109.700
G1 Z0.200
G1 E0.80000 F2100.00000
G1 F1200
G1 X120.997 Y110.130 E0.01921
G1 X121.535 Y110.130 E0.01697
G1 X121.274 Y109.870 E0.01163
G1 X121.812 Y109.870 E0.01697
G1 X122.072 Y110.130 E0.01163
G1 X122.609 Y110.130 E0.01697
G1 X122.349 Y109.870 E0.01163
G1 X122.886 Y109.870 E0.01697
G1 X123.146 Y110.130 E0.01163
G1 X123.684 Y110.130 E0.01697
G1 X123.423 Y109.870 E0.01163
G1 X123.960 Y109.870 E0.01697
G1 X124.221 Y110.130 E0.01163
G1 X124.758 Y110.130 E0.01697
G1 X124.498 Y109.870 E0.01163
G1 X125.035 Y109.870 E0.01697
G1 X125.295 Y110.130 E0.01163
G1 X125.832 Y110.130 E0.01697
G1 X125.572 Y109.870 E0.01163
G1 X126.109 Y109.870 E0.01697
G1 X126.370 Y110.130 E0.01163
G1 X126.907 Y110.130 E0.01697
G1 X126.620 Y109.843 E0.01282
G1 X126.620 Y109.306 E0.01697
G1 X127.444 Y110.130 E0.03681
G1 X127.981 Y110.130 E0.01697
G1 X126.620 Y108.769 E0.06081
G1 X126.620 Y108.232 E0.01697
G1 X128.518 Y110.130 E0.08481
G1 X129.056 Y110.130 E0.01697
G1 X126.620 Y107.694 E0.10881
G1 X126.620 Y107.157 E0.01697
G1 X129.593 Y110.130 E0.13280
G1 X130.130 Y110.130 E0.01697
G1 X126.620 Y106.620 E0.15680
G1 X126.620 Y106.083 E0.01697
G1 X130.667 Y110.130 E0.18080
G1 X131.205 Y110.130 E0.01697
G1 X126.620 Y105.545 E0.20479
G1 X126.620 Y105.008 E0.01697
G1 X131.580 Y109.969 E0.22157
G1 X131.580 Y109.431 E0.01697
G1 X126.620 Y104.471 E0.22157
G1 X126.620 Y103.934 E0.01697
G1 X131.580 Y108.894 E0.22157
G1 X131.580 Y108.357 E0.01697
G1 X126.620 Y103.397 E0.22157
G1 X126.620 Y102.859 E0.01697
G1 X131.580 Y107.820 E0.22157
G1 X131.580 Y107.282 E0.01697
G1 X126.620 Y102.322 E0.22157
G1 X126.620 Y101.785 E0.01697
G1 X131.580 Y106.745 E0.22157
G1 X131.580 Y106.208 E0.01697
G1 X126.620 Y101.248 E0.22157
G1 X126.620 Y100.711 E0.01697
G1 X131.580 Y105.671 E0.22157
G1 X131.580 Y105.134 E0.01697
G1 X126.316 Y99.870 E0.23513
G1 X126.854 Y99.870 E0.01697
G1 X131.580 Y104.596 E0.21113
G1 X131.580 Y104.059 E0.01697
G1 X127.391 Y99.870 E0.18713
G1 X127.928 Y99.870 E0.01697
G1 X131.580 Y103.522 E0.16314
G1 X131.580 Y102.985 E0.01697
G1 X128.465 Y99.870 E0.13914
G1 X129.002 Y99.870 E0.01697
G1 X131.580 Y102.448 E0.11514
G1 X131.580 Y101.910 E0.01697
G1 X129.540 Y99.870 E0.09115
G1 X130.077 Y99.870 E0.01697
G1 X131.580 Y101.373 E0.06715
G1 X131.580 Y100.836 E0.01697
G1 X130.614 Y99.870 E0.04315
G1 X131.151 Y99.870 E0.01697
G1 X131.750 Y100.468 E0.02673
M106 S255
;BEFORE_LAYER_CHANGE
G92 E0.0
;0.35


G1 F8640
G1 X131.151 Y99.870 E-0.19544
G1 X130.614 Y99.870 E-0.12404
G1 X131.580 Y100.836 E-0.31545
G1 X131.580 Y101.373 E-0.12404
G1 X131.577 Y101.370 E-0.00102
G1 E-0.04000 F2100.00000
G1 Z0.800 F10800.000
;AFTER_LAYER_CHANGE
;0.35
M104 S210 ; set temperature
G1 X134.733 Y97.829
G1 Z0.350
G1 E0.80000 F2100.00000
G1 F1294
G1 X135.001 Y98.722 E0.02256
G1 X135.012 Y111.138 E0.30029
G1 X134.787 Y112.059 E0.02293
G1 X134.242 Y112.836 E0.02293
G1 X133.471 Y113.354 E0.02246
G1 X132.562 Y113.563 E0.02256
G1 X117.542 Y113.566 E0.36326
G1 X117.035 Y113.513 E0.01233
G1 X116.548 Y113.362 E0.01233
G1 X116.101 Y113.118 E0.01233
G1 X115.714 Y112.792 E0.01223
G1 X115.201 Y112.032 E0.02218
G1 X114.988 Y111.136 E0.02227
G1 X114.984 Y98.992 E0.29370
G1 X115.037 Y98.485 E0.01233
G1 X115.188 Y97.998 E0.01233
G1 X115.432 Y97.551 E0.01233
G1 X115.758 Y97.164 E0.01223
G1 X116.529 Y96.646 E0.02246
G1 X117.438 Y96.437 E0.02256
G1 X132.454 Y96.434 E0.36317
G1 X133.371 Y96.605 E0.02256
G1 X134.163 Y97.090 E0.02246
G1 X134.696 Y97.781 E0.02110
G1 F8640
G1 X135.001 Y98.722 E-0.22834
G1 X135.003 Y101.024 E-0.53166
G1 E-0.04000 F2100.00000
G1 Z0.950 F10800.000
G1 X126.393 Y100.357
G1 Z0.350
G1 E0.80000 F2100.00000
M204 S800
G1 F1294
G1 X126.393 Y109.643 E0.24194
G1 X120.107 Y109.643 E0.16378
G1 X120.107 Y100.357 E0.24194
G1 X126.333 Y100.357 E0.16221
M204 S1000
G1 X125.975 Y100.775 F10800.000
M204 S800
G1 F1294
G1 X125.975 Y109.225 E0.22017
G1 X120.525 Y109.225 E0.14200
G1 X120.525 Y100.775 E0.22017
G1 X125.915 Y100.775 E0.14044
M204 S1000
G1 X126.353 Y100.644 F10800.000
G1 F8640
G1 X125.938 Y104.066 E-0.76000
G1 E-0.04000 F2100.00000
G1 Z0.950 F10800.000
G1 X131.807 Y99.643
G1 Z0.350
G1 E0.80000 F2100.00000
M204 S800
G1 F1294
G1 X131.807 Y110.357 E0.27917
G1 X118.193 Y110.357 E0.35473
G1 X118.193 Y99.643 E0.27917
G1 X131.747 Y99.643 E0.35317
M204 S1000
G1 X132.225 Y99.225 F10800.000
M204 S800
G1 F1294
G1 X132.225 Y110.775 E0.30094
G1 X117.775 Y110.775 E0.37651
G1 X117.775 Y99.225 E0.30094
G1 X132.165 Y99.225 E0.37494
M204 S1000
G1 X132.107 Y99.607 F10800.000
G1 F8640
G1 X132.182 Y102.516 E-0.76000
G1 E-0.04000 F2100.00000
G1 Z0.950 F10800.000
G1 X126.602 Y100.000
G1 Z0.350
G1 E0.80000 F2100.00000
G1 F1294
G1 X119.898 Y100.000 E0.12398
G1 F8640
G1 X123.190 Y100.000 E-0.76000
G1 E-0.04000 F2100.00000
G1 Z0.950 F10800.000
G1 X118.318 Y100.626
G1 Z0.350
G1 E0.80000 F2100.00000
G1 F1294
G1 X118.988 Y99.956 E0.02509
G1 X119.585 Y99.956 E0.01579
G1 X118.506 Y101.039 E0.04044
G1 X118.506 Y101.639 E0.01588
G1 X119.667 Y100.478 E0.04345
G1 X119.794 Y100.478 E0.00335
G1 X119.794 Y100.951 E0.01253
G1 X118.506 Y102.239 E0.04819
G1 X118.506 Y102.839 E0.01588
G1 X119.794 Y101.551 E0.04819
G1 X119.794 Y102.151 E0.01588
G1 X118.506 Y103.439 E0.04819
G1 X118.506 Y104.039 E0.01588
G1 X119.794 Y102.751 E0.04819
G1 X119.794 Y103.351 E0.01588
G1 X118.506 Y104.639 E0.04819
G1 X118.506 Y105.239 E0.01588
G1 X119.794 Y103.952 E0.04819
G1 X119.794 Y104.552 E0.01588
G1 X118.506 Y105.839 E0.04819
G1 X118.506 Y106.439 E0.01588
G1 X119.794 Y105.152 E0.04819
G1 X119.794 Y105.752 E0.01588
G1 X118.506 Y107.040 E0.04819
G1 X118.506 Y107.640 E0.01588
G1 X119.794 Y106.352 E0.04819
G1 X119.794 Y106.952 E0.01588
G1 X118.506 Y108.240 E0.04819
G1 X118.506 Y108.840 E0.01588
G1 X119.794 Y107.552 E0.04819
G1 X119.794 Y108.152 E0.01588
G1 X118.506 Y109.440 E0.04819
G1 X118.506 Y110.040 E0.01588
G1 X119.794 Y108.752 E0.04819
G1 X119.794 Y109.353 E0.01588
G1 X118.915 Y110.232 E0.03291
G1 F8640
G1 X119.794 Y109.353 E-0.28714
G1 X119.794 Y108.752 E-0.13857
G1 X118.770 Y109.776 E-0.33429
G1 E-0.04000 F2100.00000
G1 Z0.950 F10800.000
G1 X119.898 Y110.000
G1 Z0.350
G1 E0.80000 F2100.00000
G1 F1294
G1 X126.602 Y110.000 E0.12398
G1 F8640
G1 X123.310 Y110.000 E-0.76000
G1 E-0.04000 F2100.00000
G1 Z0.950 F10800.000
G1 X130.829 Y110.232
G1 Z0.350
G1 E0.80000 F2100.00000
G1 F1294
G1 X131.494 Y109.567 E0.02471
G1 X131.494 Y108.971 E0.01568
G1 X130.421 Y110.044 E0.03989
G1 X129.825 Y110.044 E0.01568
G1 X131.494 Y108.375 E0.06206
G1 X131.494 Y107.779 E0.01568
G1 X129.229 Y110.044 E0.08423
G1 X128.632 Y110.044 E0.01568
G1 X131.494 Y107.182 E0.10640
G1 X131.494 Y106.586 E0.01568
G1 X128.036 Y110.044 E0.12857
G1 X127.440 Y110.044 E0.01568
G1 X131.494 Y105.990 E0.15074
G1 X131.494 Y105.394 E0.01568
G1 X126.915 Y109.972 E0.17025
G1 X126.915 Y109.522 E0.01183
G1 X126.769 Y109.522 E0.00384
G1 X131.494 Y104.797 E0.17568
G1 X131.494 Y104.201 E0.01568
G1 X126.706 Y108.989 E0.17802
G1 X126.706 Y108.393 E0.01568
G1 X131.494 Y103.605 E0.17802
G1 X131.494 Y103.009 E0.01568
G1 X126.706 Y107.796 E0.17802
G1 X126.706 Y107.200 E0.01568
G1 X131.494 Y102.412 E0.17802
G1 X131.494 Y101.816 E0.01568
G1 X126.706 Y106.604 E0.17802
G1 X126.706 Y106.008 E0.01568
G1 X131.494 Y101.220 E0.17802
G1 X131.494 Y100.624 E0.01568
G1 X126.706 Y105.411 E0.17802
G1 X126.706 Y104.815 E0.01568
G1 X131.494 Y100.027 E0.17802
G1 X131.494 Y99.956 E0.00188
G1 X130.969 Y99.956 E0.01380
G1 X126.706 Y104.219 E0.15850
G1 X126.706 Y103.623 E0.01568
G1 X130.373 Y99.956 E0.13633
G1 X129.776 Y99.956 E0.01568
G1 X126.706 Y103.026 E0.11416
G1 X126.706 Y102.430 E0.01568
G1 X129.180 Y99.956 E0.09199
G1 X128.584 Y99.956 E0.01568
G1 X126.706 Y101.834 E0.06982
G1 X126.706 Y101.238 E0.01568
G1 X127.988 Y99.956 E0.04765
G1 X127.392 Y99.956 E0.01568
G1 X126.518 Y100.830 E0.03248
;BEFORE_LAYER_CHANGE
G92 E0.0
;0.5


G1 F8640
G1 X127.392 Y99.956 E-0.28521
G1 X127.988 Y99.956 E-0.13767
G1 X126.955 Y100.989 E-0.33712
G1 E-0.04000 F2100.00000
G1 Z0.950 F10800.000
;AFTER_LAYER_CHANGE
;0.5
G1 X133.371 Y96.605
G1 Z0.500
G1 E0.80000 F2100.00000
G1 F1278
G1 X134.163 Y97.090 E0.02246
G1 X134.733 Y97.829 E0.02256
G1 X135.001 Y98.722 E0.02256
G1 X135.012 Y111.138 E0.30029
G1 X134.787 Y112.059 E0.02293
G1 X134.242 Y112.836 E0.02293
G1 X133.471 Y113.354 E0.02246
G1 X132.562 Y113.563 E0.02256
G1 X117.542 Y113.566 E0.36326
G1 X117.035 Y113.513 E0.01233
G1 X116.548 Y113.362 E0.01233
G1 X116.101 Y113.118 E0.01233
G1 X115.714 Y112.792 E0.01223
G1 X115.201 Y112.032 E0.02218
G1 X114.988 Y111.136 E0.02227
G1 X114.984 Y98.992 E0.29370
G1 X115.037 Y98.485 E0.01233
G1 X115.188 Y97.998 E0.01233
G1 X115.432 Y97.551 E0.01233
G1 X115.758 Y97.164 E0.01223
G1 X116.529 Y96.646 E0.02246
G1 X117.438 Y96.437 E0.02256
G1 X132.454 Y96.434 E0.36317
M73 Q19 S4
G1 X133.312 Y96.594 E0.02110
G1 F8640
G1 X134.163 Y97.090 E-0.22745
G1 X134.733 Y97.829 E-0.21535
M73 P19 R4
G1 X135.001 Y98.722 E-0.21535
G1 X135.001 Y99.163 E-0.10185
G1 E-0.04000 F2100.00000
G1 Z1.100 F10800.000
G1 X126.393 Y100.357
G1 Z0.500
G1 E0.80000 F2100.00000
M204 S800
G1 F1278
G1 X126.393 Y109.643 E0.24194
G1 X120.107 Y109.643 E0.16378
G1 X120.107 Y100.357 E0.24194
G1 X126.333 Y100.357 E0.16221
M204 S1000
G1 X125.975 Y100.775 F10800.000
M204 S800
G1 F1278
G1 X125.975 Y109.225 E0.22017
G1 X120.525 Y109.225 E0.14200
G1 X120.525 Y100.775 E0.22017
G1 X125.915 Y100.775 E0.14044
M204 S1000
G1 X126.353 Y100.644 F10800.000
G1 F8640
G1 X125.938 Y104.066 E-0.76000
G1 E-0.04000 F2100.00000
G1 Z1.100 F10800.000
G1 X131.807 Y99.643
G1 Z0.500
G1 E0.80000 F2100.00000
M204 S800
G1 F1278
G1 X131.807 Y110.357 E0.27917
G1 X118.193 Y110.357 E0.35473
G1 X118.193 Y99.643 E0.27917
G1 X131.747 Y99.643 E0.35317
M204 S1000
