; generated by PrusaSlicer 2.2.0+win64 on 2020-07-29 at 14:01:57 UTC

; 

; external perimeters extrusion width = 0.45mm
; perimeters extrusion width = 0.45mm
; infill extrusion width = 0.45mm
; solid infill extrusion width = 0.45mm
; top infill extrusion width = 0.40mm
; first layer extrusion width = 0.42mm

M73 P0 R32
M73 Q0 S32
M201 X1000 Y1000 Z200 E5000 ; sets maximum accelerations, mm/sec^2
M203 X200 Y200 Z12 E120 ; sets maximum feedrates, mm/sec
M204 P1250 R1250 T1250 ; sets acceleration (P, T) and retract acceleration (R), mm/sec^2
M205 X8.00 Y8.00 Z0.40 E4.50 ; sets the jerk limits, mm/sec
M205 S0 T0 ; sets the minimum extruding and travel feed rate, mm/sec
M107
M862.3 P "MK3S" ; printer model check
M862.1 P0.4 ; nozzle diameter check
M115 U3.9.0 ; tell printer latest fw version
G90 ; use absolute coordinates
M83 ; extruder relative mode
M104 S215 ; set extruder temp
M140 S60 ; set bed temp
M190 S60 ; wait for bed temp
M109 S215 ; wait for extruder temp
G28 W ; home all without mesh bed level
G80 ; mesh bed leveling
G1 Y-3.0 F1000.0 ; go outside print area
G92 E0.0
G1 X60.0 E9.0 F1000.0 ; intro line
M73 Q0 S32
M73 P0 R32
G1 X100.0 E12.5 F1000.0 ; intro line
G92 E0.0
M221 S95
G21 ; set units to millimeters
G90 ; use absolute coordinates
M83 ; use relative distances for extrusion
M900 K0.06 ; Filament gcode LA 1.5
M900 K30 ; Filament gcode LA 1.0
;BEFORE_LAYER_CHANGE
G92 E0.0
;0.2


G1 E-0.80000 F2100.00000
G1 Z0.600 F10800.000
;AFTER_LAYER_CHANGE
;0.2
G1 X110.442 Y91.979
G1 Z0.200
G1 E0.80000 F2100.00000
M204 S1000
G1 F1200.000
G1 X110.949 Y91.161 E0.03018
G1 X111.358 Y90.789 E0.01733
G1 X111.836 Y90.504 E0.01745
G1 X112.357 Y90.322 E0.01733
G1 X112.905 Y90.247 E0.01733
G1 X137.004 Y90.246 E0.75561
G1 X138.013 Y90.439 E0.03221
G1 X138.878 Y90.985 E0.03208
G1 X139.484 Y91.810 E0.03208
G1 X139.747 Y92.803 E0.03221
G1 X139.753 Y117.074 E0.76100
G1 X139.558 Y118.021 E0.03031
G1 X139.051 Y118.839 E0.03018
G1 X138.629 Y119.221 E0.01784
G1 X138.134 Y119.510 E0.01796
G1 X137.591 Y119.690 E0.01796
G1 X137.021 Y119.754 E0.01796
G1 X112.926 Y119.753 E0.75548
G1 X111.979 Y119.558 E0.03031
G1 X111.161 Y119.051 E0.03018
G1 X110.779 Y118.629 E0.01784
G1 X110.490 Y118.134 E0.01796
G1 X110.310 Y117.591 E0.01796
G1 X110.246 Y117.021 E0.01796
G1 X110.247 Y92.926 E0.75548
G1 X110.430 Y92.038 E0.02843
G1 F8640.000
G1 X110.949 Y91.161 E-0.23533
G1 X111.358 Y90.789 E-0.12759
G1 X111.836 Y90.504 E-0.12853
G1 X112.357 Y90.322 E-0.12759
G1 X112.905 Y90.247 E-0.12759
G1 X112.963 Y90.247 E-0.01337
G1 E-0.04000 F2100.00000
G1 Z0.800 F10800.000
G1 X112.006 Y90.841
G1 Z0.200
G1 E0.80000 F2100.00000
G1 F1200.000
G1 X112.927 Y90.624 E0.02966
G1 X137.004 Y90.623 E0.75493
G1 X137.878 Y90.791 E0.02790
G1 X138.629 Y91.268 E0.02790
G1 X139.151 Y91.989 E0.02790
G1 X139.372 Y92.850 E0.02790
G1 X139.376 Y117.057 E0.75898
G1 X139.206 Y117.885 E0.02649
G1 X138.757 Y118.601 E0.02649
G1 X138.392 Y118.927 E0.01538
G1 X137.966 Y119.172 E0.01538
G1 X137.500 Y119.324 E0.01538
G1 X137.013 Y119.377 E0.01538
G1 X112.943 Y119.376 E0.75469
G1 X112.115 Y119.206 E0.02649
G1 X111.399 Y118.757 E0.02649
G1 X111.073 Y118.392 E0.01538
G1 X110.828 Y117.966 E0.01538
G1 X110.676 Y117.500 E0.01538
G1 X110.623 Y117.013 E0.01538
G1 X110.624 Y92.943 E0.75469
G1 X110.794 Y92.115 E0.02649
G1 X111.243 Y91.399 E0.02649
G1 X111.957 Y90.876 E0.02778
G1 F8640.000
G1 X112.927 Y90.624 E-0.23123
G1 X115.217 Y90.624 E-0.52877
G1 E-0.04000 F2100.00000
G1 Z0.800 F10800.000
G1 X130.326 Y109.897
G1 Z0.200
G1 E0.80000 F2100.00000
G1 F1200.000
G1 X130.820 Y109.582 E0.01838
G1 X131.349 Y109.389 E0.01764
G1 X131.906 Y109.311 E0.01764
G1 X132.467 Y109.350 E0.01763
G1 X133.008 Y109.505 E0.01764
G1 X133.495 Y109.765 E0.01731
G1 X133.799 Y110.002 E0.01208
G1 X134.067 Y110.279 E0.01209
G1 X134.376 Y110.737 E0.01731
G1 X134.586 Y111.258 E0.01763
G1 X134.682 Y111.802 E0.01731
G1 X134.682 Y112.198 E0.01241
G1 X134.586 Y112.742 E0.01731
G1 X134.376 Y113.263 E0.01763
G1 X134.061 Y113.729 E0.01764
G1 X133.656 Y114.120 E0.01763
G1 X133.180 Y114.418 E0.01763
G1 X132.651 Y114.611 E0.01764
G1 X132.094 Y114.689 E0.01764
G1 X131.533 Y114.650 E0.01763
G1 X130.992 Y114.495 E0.01764
G1 X130.505 Y114.235 E0.01731
G1 X130.201 Y113.998 E0.01208
G1 X129.933 Y113.721 E0.01209
G1 X129.624 Y113.263 E0.01731
G1 X129.414 Y112.742 E0.01763
G1 X129.318 Y112.198 E0.01731
G1 X129.318 Y111.802 E0.01241
G1 X129.414 Y111.258 E0.01731
G1 X129.624 Y110.737 E0.01763
G1 X129.939 Y110.271 E0.01764
G1 X130.283 Y109.939 E0.01499
G1 X130.577 Y110.179 F10800.000
G1 F1200.000
G1 X130.987 Y109.923 E0.01515
G1 X131.441 Y109.757 E0.01515
G1 X131.919 Y109.690 E0.01515
G1 X132.401 Y109.724 E0.01514
G1 X132.866 Y109.857 E0.01515
G1 X133.289 Y110.082 E0.01503
G1 X133.546 Y110.283 E0.01022
G1 X133.773 Y110.517 E0.01022
G1 X134.041 Y110.915 E0.01503
G1 X134.222 Y111.363 E0.01515
G1 X134.305 Y111.835 E0.01504
G1 X134.305 Y112.165 E0.01034
G1 X134.222 Y112.637 E0.01504
G1 X134.041 Y113.085 E0.01515
G1 X133.771 Y113.486 E0.01515
G1 X133.423 Y113.821 E0.01515
G1 X133.013 Y114.077 E0.01515
G1 X132.559 Y114.243 E0.01515
G1 X132.081 Y114.310 E0.01515
G1 X131.599 Y114.276 E0.01515
G1 X131.134 Y114.143 E0.01515
G1 X130.711 Y113.918 E0.01503
G1 X130.454 Y113.717 E0.01022
G1 X130.227 Y113.483 E0.01023
G1 X129.959 Y113.085 E0.01503
G1 X129.778 Y112.637 E0.01515
G1 X129.695 Y112.165 E0.01504
G1 X129.695 Y111.835 E0.01034
G1 X129.778 Y111.363 E0.01504
G1 X129.959 Y110.915 E0.01515
G1 X130.229 Y110.514 E0.01515
G1 X130.534 Y110.220 E0.01327
G1 X130.521 Y109.783 F10800.000
G1 F8640.000
G1 X130.987 Y109.923 E-0.12515
G1 X131.441 Y109.757 E-0.11159
G1 X131.919 Y109.690 E-0.11159
G1 X132.401 Y109.724 E-0.11153
G1 X132.866 Y109.857 E-0.11159
G1 X133.289 Y110.082 E-0.11072
G1 X133.546 Y110.283 E-0.07528
G1 X133.554 Y110.291 E-0.00255
G1 E-0.04000 F2100.00000
G1 Z0.800 F10800.000
G1 X120.632 Y111.441
G1 Z0.200
G1 E0.80000 F2100.00000
G1 F1200.000
G1 X120.690 Y112.000 E0.01763
G1 X120.632 Y112.559 E0.01763
G1 X120.458 Y113.094 E0.01764
G1 X120.182 Y113.572 E0.01731
G1 X119.927 Y113.876 E0.01241
G1 X119.504 Y114.231 E0.01731
G1 X119.017 Y114.490 E0.01731
G1 X118.641 Y114.612 E0.01241
G1 X118.094 Y114.689 E0.01731
G1 X117.533 Y114.650 E0.01763
G1 X116.992 Y114.495 E0.01764
G1 X116.496 Y114.231 E0.01764
G1 X116.073 Y113.876 E0.01731
G1 X115.818 Y113.572 E0.01241
G1 X115.542 Y113.094 E0.01731
G1 X115.368 Y112.559 E0.01764
G1 X115.310 Y112.000 E0.01763
G1 X115.368 Y111.441 E0.01763
G1 X115.542 Y110.906 E0.01764
G1 X115.818 Y110.428 E0.01731
G1 X116.073 Y110.124 E0.01241
G1 X116.496 Y109.769 E0.01731
G1 X116.983 Y109.510 E0.01731
G1 X117.359 Y109.388 E0.01241
G1 X117.906 Y109.311 E0.01731
G1 X118.467 Y109.350 E0.01763
G1 X119.008 Y109.505 E0.01764
G1 X119.504 Y109.769 E0.01764
G1 X119.927 Y110.124 E0.01731
G1 X120.182 Y110.428 E0.01241
G1 X120.458 Y110.906 E0.01731
G1 X120.613 Y111.384 E0.01575
G1 X120.254 Y111.500 F10800.000
G1 F1200.000
G1 X120.311 Y112.000 E0.01577
G1 X120.261 Y112.480 E0.01515
G1 X120.111 Y112.940 E0.01515
G1 X119.872 Y113.355 E0.01503
G1 X119.660 Y113.608 E0.01034
G1 X119.292 Y113.916 E0.01503
G1 X118.869 Y114.141 E0.01503
G1 X118.555 Y114.243 E0.01034
G1 X118.081 Y114.310 E0.01503
G1 X117.599 Y114.276 E0.01515
G1 X117.134 Y114.143 E0.01515
G1 X116.708 Y113.916 E0.01515
G1 X116.340 Y113.608 E0.01504
G1 X116.128 Y113.355 E0.01034
G1 X115.889 Y112.940 E0.01503
G1 X115.739 Y112.481 E0.01515
G1 X115.689 Y112.000 E0.01515
G1 X115.739 Y111.519 E0.01515
G1 X115.889 Y111.060 E0.01515
G1 X116.128 Y110.645 E0.01503
G1 X116.340 Y110.392 E0.01034
G1 X116.708 Y110.084 E0.01503
G1 X117.131 Y109.859 E0.01503
G1 X117.445 Y109.757 E0.01034
G1 X117.919 Y109.690 E0.01503
G1 X118.401 Y109.724 E0.01515
G1 X118.866 Y109.857 E0.01515
G1 X119.292 Y110.084 E0.01515
G1 X119.660 Y110.392 E0.01503
G1 X119.872 Y110.645 E0.01034
G1 X120.111 Y111.060 E0.01503
G1 X120.236 Y111.443 E0.01263
G1 X120.636 Y111.621 F10800.000
G1 F8640.000
G1 X120.311 Y112.000 E-0.12977
G1 X120.261 Y112.480 E-0.11156
G1 X120.111 Y112.940 E-0.11157
G1 X119.872 Y113.355 E-0.11072
G1 X119.660 Y113.608 E-0.07615
G1 X119.292 Y113.916 E-0.11072
G1 X118.874 Y114.139 E-0.10951
G1 E-0.04000 F2100.00000
G1 Z0.800 F10800.000
G1 X113.787 Y116.213
G1 Z0.200
G1 E0.80000 F2100.00000
G1 F1200.000
G1 X113.787 Y93.787 E0.70315
G1 X136.213 Y93.787 E0.70315
G1 X136.213 Y116.213 E0.70315
G1 X113.847 Y116.213 E0.70127
G1 X113.410 Y116.590 F10800.000
G1 F1200.000
G1 X113.410 Y93.410 E0.72679
G1 X136.590 Y93.410 E0.72679
G1 X136.590 Y116.590 E0.72679
G1 X113.470 Y116.590 E0.72491
G1 X113.514 Y116.204 F10800.000
G1 F8640.000
G1 X113.461 Y113.299 E-0.76000
G1 E-0.04000 F2100.00000
G1 Z0.800 F10800.000
G1 X113.900 Y115.334
G1 Z0.200
G1 E0.80000 F2100.00000
G1 F1200.000
G1 X114.497 Y115.930 E0.02657
G1 X115.032 Y115.930 E0.01688
G1 X114.070 Y114.968 E0.04288
G1 X114.070 Y114.432 E0.01688
G1 X115.568 Y115.930 E0.06676
G1 X116.104 Y115.930 E0.01688
G1 X114.070 Y113.896 E0.09063
G1 X114.070 Y113.360 E0.01688
G1 X116.640 Y115.930 E0.11451
G1 X117.176 Y115.930 E0.01688
G1 X114.070 Y112.824 E0.13838
G1 X114.070 Y112.288 E0.01688
G1 X117.881 Y116.100 E0.16982
G1 F8640.000
G1 X115.554 Y113.772 E-0.76000
G1 E-0.04000 F2100.00000
G1 Z0.800 F10800.000
G1 X125.919 Y116.100
G1 Z0.200
G1 E0.80000 F2100.00000
G1 F1200.000
G1 X120.770 Y110.951 E0.22941
G1 X120.910 Y111.382 E0.01427
G1 X120.939 Y111.655 E0.00867
G1 X125.213 Y115.930 E0.19046
G1 X124.677 Y115.930 E0.01688
G1 X120.953 Y112.206 E0.16594
G1 X120.890 Y112.679 E0.01503
G1 X124.142 Y115.930 E0.14487
G1 X123.606 Y115.930 E0.01688
G1 X120.759 Y113.083 E0.12685
G1 X120.718 Y113.210 E0.00420
G1 X120.583 Y113.443 E0.00848
G1 X123.070 Y115.930 E0.11081
G1 X122.534 Y115.930 E0.01688
G1 X120.380 Y113.776 E0.09597
G1 X120.136 Y114.067 E0.01198
G1 X121.998 Y115.930 E0.08299
G1 X121.462 Y115.930 E0.01688
G1 X119.846 Y114.313 E0.07203
G1 X119.663 Y114.466 E0.00749
G1 X119.532 Y114.536 E0.00468
G1 X120.927 Y115.930 E0.06212
G1 X120.391 Y115.930 E0.01688
G1 X119.183 Y114.722 E0.05383
G1 X118.787 Y114.862 E0.01323
G1 X119.855 Y115.930 E0.04760
G1 X119.319 Y115.930 E0.01688
G1 X118.330 Y114.941 E0.04406
G1 X118.104 Y114.973 E0.00720
G1 X117.805 Y114.952 E0.00943
G1 X118.783 Y115.930 E0.04358
G1 X118.247 Y115.930 E0.01688
G1 X117.152 Y114.835 E0.04881
G1 X116.886 Y114.758 E0.00872
G1 X116.337 Y114.466 E0.01959
G1 X115.872 Y114.076 E0.01911
G1 X115.586 Y113.735 E0.01403
G1 X115.282 Y113.210 E0.01911
G1 X115.165 Y112.847 E0.01201
G1 X114.070 Y111.753 E0.04877
G1 X114.070 Y111.217 E0.01688
G1 X115.045 Y112.192 E0.04347
G1 X115.025 Y112.000 E0.00609
G1 X115.060 Y111.671 E0.01043
G1 X114.070 Y110.681 E0.04411
G1 X114.070 Y110.145 E0.01688
G1 X115.143 Y111.218 E0.04782
G1 X115.275 Y110.814 E0.01340
G1 X114.070 Y109.609 E0.05368
G1 X114.070 Y109.073 E0.01688
G1 X115.467 Y110.470 E0.06225
G1 X115.586 Y110.265 E0.00748
G1 X115.682 Y110.150 E0.00473
G1 X114.070 Y108.538 E0.07183
G1 X114.070 Y108.002 E0.01688
G1 X115.937 Y109.869 E0.08319
G1 X116.228 Y109.624 E0.01198
G1 X114.070 Y107.466 E0.09618
G1 X114.070 Y106.930 E0.01688
G1 X116.557 Y109.417 E0.11080
G1 X116.912 Y109.236 E0.01255
G1 X114.070 Y106.394 E0.12662
G1 X114.070 Y105.858 E0.01688
G1 X117.320 Y109.108 E0.14479
G1 X117.789 Y109.042 E0.01495
G1 X114.070 Y105.323 E0.16572
G1 X114.070 Y104.787 E0.01688
G1 X118.341 Y109.058 E0.19032
G1 X118.516 Y109.070 E0.00553
G1 X119.039 Y109.220 E0.01713
G1 X114.070 Y104.251 E0.22141
G1 X114.070 Y103.715 E0.01688
G1 X126.285 Y115.930 E0.54425
G1 X126.821 Y115.930 E0.01688
G1 X114.070 Y103.179 E0.56812
G1 X114.070 Y102.643 E0.01688
G1 X127.357 Y115.930 E0.59199
G1 X127.893 Y115.930 E0.01688
G1 X114.070 Y102.107 E0.61587
G1 X114.070 Y101.572 E0.01688
G1 X128.428 Y115.930 E0.63974
G1 X128.964 Y115.930 E0.01688
G1 X114.070 Y101.036 E0.66362
G1 X114.070 Y100.500 E0.01688
G1 X129.500 Y115.930 E0.68749
G1 X130.036 Y115.930 E0.01688
G1 X114.070 Y99.964 E0.71137
G1 X114.070 Y99.428 E0.01688
G1 X130.572 Y115.930 E0.73524
G1 X131.108 Y115.930 E0.01688
G1 X114.070 Y98.892 E0.75912
G1 X114.070 Y98.357 E0.01688
G1 X131.813 Y116.100 E0.79055
G1 F8640.000
G1 X129.486 Y113.772 E-0.76000
G1 E-0.04000 F2100.00000
G1 Z0.800 F10800.000
G1 X136.100 Y112.349
G1 Z0.200
G1 E0.80000 F2100.00000
G1 F1200.000
G1 X134.811 Y111.060 E0.05741
G1 X134.860 Y111.180 E0.00406
G1 X134.959 Y111.744 E0.01804
G1 X135.930 Y112.715 E0.04327
G1 X135.930 Y113.251 E0.01688
G1 X134.955 Y112.276 E0.04343
G1 X134.875 Y112.732 E0.01457
G1 X135.930 Y113.787 E0.04701
G1 X135.930 Y114.323 E0.01688
G1 X134.735 Y113.128 E0.05324
G1 X134.627 Y113.397 E0.00913
G1 X134.563 Y113.491 E0.00360
G1 X135.930 Y114.858 E0.06092
G1 X135.930 Y115.394 E0.01688
G1 X134.347 Y113.811 E0.07054
G1 X134.279 Y113.912 E0.00384
G1 X134.092 Y114.092 E0.00817
G1 X135.930 Y115.930 E0.08188
G1 X135.394 Y115.930 E0.01688
G1 X133.817 Y114.353 E0.07027
G1 X133.487 Y114.559 E0.01225
G1 X134.858 Y115.930 E0.06108
G1 X134.323 Y115.930 E0.01688
G1 X133.130 Y114.737 E0.05315
G1 X132.737 Y114.880 E0.01317
G1 X133.787 Y115.930 E0.04678
G1 X133.251 Y115.930 E0.01688
G1 X132.270 Y114.950 E0.04369
G1 X132.104 Y114.973 E0.00530
G1 X131.732 Y114.947 E0.01174
G1 X132.715 Y115.930 E0.04381
G1 X132.179 Y115.930 E0.01688
G1 X131.056 Y114.807 E0.05003
G1 X130.886 Y114.758 E0.00559
G1 X130.350 Y114.473 E0.01912
G1 X130.011 Y114.209 E0.01354
G1 X129.713 Y113.899 E0.01355
G1 X129.373 Y113.397 E0.01911
G1 X129.189 Y112.940 E0.01552
G1 X114.070 Y97.821 E0.67363
G1 X114.070 Y97.285 E0.01688
G1 X129.041 Y112.256 E0.66704
G1 X129.045 Y111.724 E0.01677
G1 X114.070 Y96.749 E0.66720
G1 X114.070 Y96.213 E0.01688
G1 X129.125 Y111.268 E0.67078
G1 X129.140 Y111.180 E0.00282
G1 X129.265 Y110.872 E0.01045
G1 X114.070 Y95.677 E0.67701
G1 X114.070 Y95.142 E0.01688
G1 X129.437 Y110.509 E0.68469
G1 X129.653 Y110.189 E0.01216
G1 X114.070 Y94.606 E0.69431
G1 X114.070 Y94.070 E0.01688
G1 X129.908 Y109.908 E0.70566
M73 Q3 S31
M73 P3 R31
G1 X130.183 Y109.647 E0.01194
G1 X114.606 Y94.070 E0.69404
G1 X115.142 Y94.070 E0.01688
G1 X130.513 Y109.441 E0.68486
G1 X130.696 Y109.326 E0.00681
G1 X130.870 Y109.263 E0.00585
G1 X115.677 Y94.070 E0.67692
G1 X116.213 Y94.070 E0.01688
G1 X131.263 Y109.120 E0.67055
G1 X131.730 Y109.050 E0.01486
G1 X116.749 Y94.070 E0.66746
G1 X117.285 Y94.070 E0.01688
G1 X132.268 Y109.053 E0.66758
G1 X132.516 Y109.070 E0.00784
G1 X132.944 Y109.193 E0.01400
G1 X117.821 Y94.070 E0.67381
G1 X118.357 Y94.070 E0.01688
G1 X135.930 Y111.643 E0.78299
G1 X135.930 Y111.108 E0.01688
G1 X118.892 Y94.070 E0.75912
G1 X119.428 Y94.070 E0.01688
G1 X135.930 Y110.572 E0.73524
G1 X135.930 Y110.036 E0.01688
G1 X119.964 Y94.070 E0.71137
G1 X120.500 Y94.070 E0.01688
G1 X135.930 Y109.500 E0.68750
G1 X135.930 Y108.964 E0.01688
G1 X121.036 Y94.070 E0.66362
G1 X121.572 Y94.070 E0.01688
G1 X135.930 Y108.428 E0.63975
G1 X135.930 Y107.893 E0.01688
G1 X122.107 Y94.070 E0.61587
G1 X122.643 Y94.070 E0.01688
G1 X135.930 Y107.357 E0.59200
G1 X135.930 Y106.821 E0.01688
G1 X123.179 Y94.070 E0.56812
G1 X123.715 Y94.070 E0.01688
G1 X135.930 Y106.285 E0.54425
G1 X135.930 Y105.749 E0.01688
G1 X124.251 Y94.070 E0.52038
G1 X124.787 Y94.070 E0.01688
G1 X135.930 Y105.213 E0.49650
G1 X135.930 Y104.678 E0.01688
G1 X125.322 Y94.070 E0.47263
G1 X125.858 Y94.070 E0.01688
G1 X135.930 Y104.142 E0.44875
G1 X135.930 Y103.606 E0.01688
G1 X126.394 Y94.070 E0.42488
G1 X126.930 Y94.070 E0.01688
G1 X135.930 Y103.070 E0.40100
G1 X135.930 Y102.534 E0.01688
G1 X127.466 Y94.070 E0.37713
G1 X128.002 Y94.070 E0.01688
G1 X135.930 Y101.998 E0.35326
G1 X135.930 Y101.463 E0.01688
G1 X128.537 Y94.070 E0.32938
G1 X129.073 Y94.070 E0.01688
G1 X135.930 Y100.927 E0.30551
G1 X135.930 Y100.391 E0.01688
G1 X129.609 Y94.070 E0.28163
G1 X130.145 Y94.070 E0.01688
G1 X135.930 Y99.855 E0.25776
G1 X135.930 Y99.319 E0.01688
G1 X130.681 Y94.070 E0.23388
G1 X131.217 Y94.070 E0.01688
G1 X135.930 Y98.783 E0.21001
G1 X135.930 Y98.247 E0.01688
G1 X131.753 Y94.070 E0.18613
G1 X132.288 Y94.070 E0.01688
G1 X135.930 Y97.712 E0.16226
G1 X135.930 Y97.176 E0.01688
G1 X132.824 Y94.070 E0.13839
