; generated by PrusaSlicer 2.1.1 on 2020-07-30 at 19:03:15 UTC

; 

; external perimeters extrusion width = 0.45mm
; perimeters extrusion width = 0.45mm
; infill extrusion width = 0.45mm
; solid infill extrusion width = 0.45mm
; top infill extrusion width = 0.40mm
; first layer extrusion width = 0.42mm

M73 P0 R49
M73 Q0 S50
M201 X1000 Y1000 Z200 E5000 ; sets maximum accelerations, mm/sec^2
M203 X200 Y200 Z12 E120 ; sets maximum feedrates, mm/sec
M204 P1250 R1250 T1250 ; sets acceleration (P, T) and retract acceleration (R), mm/sec^2
M205 X8.00 Y8.00 Z0.40 E4.50 ; sets the jerk limits, mm/sec
M205 S0 T0 ; sets the minimum extruding and travel feed rate, mm/sec
M107
M862.3 P "MK3S" ; printer model check
M862.1 P0.4 ; nozzle diameter check
M115 U3.9.0 ; tell printer latest fw version
G90 ; use absolute coordinates
M83 ; extruder relative mode
M104 S215 ; set extruder temp
M140 S60 ; set bed temp
M190 S60 ; wait for bed temp
M109 S215 ; wait for extruder temp
G28 W ; home all without mesh bed level
G80 ; mesh bed leveling
G1 Y-3.0 F1000.0 ; go outside print area
G92 E0.0
G1 X60.0 E9.0 F1000.0 ; intro line
M73 Q0 S50
M73 P0 R49
G1 X100.0 E12.5 F1000.0 ; intro line
G92 E0.0
M221 S95
G21 ; set units to millimeters
G90 ; use absolute coordinates
M83 ; use relative distances for extrusion
M900 K0.06 ; Filament gcode LA 1.5
M900 K30 ; Filament gcode LA 1.0
;BEFORE_LAYER_CHANGE
G92 E0.0
;0.2


G1 E-0.80000 F2100.00000
G1 Z0.600 F10800.000
;AFTER_LAYER_CHANGE
;0.2
G1 X98.821 Y97.596
G1 Z0.200
G1 E0.80000 F2100.00000
M204 S1000
G1 F1200
G1 X99.306 Y97.166 E0.02032
G1 X99.892 Y96.898 E0.02021
G1 X100.498 Y96.811 E0.01919
G1 X149.504 Y96.811 E1.53654
G1 X150.320 Y96.971 E0.02608
G1 X151.021 Y97.426 E0.02620
G1 X151.498 Y98.107 E0.02608
G1 X151.687 Y98.917 E0.02608
G1 X151.675 Y111.241 E0.38639
G1 X151.512 Y111.861 E0.02010
G1 X151.174 Y112.409 E0.02021
G1 X150.694 Y112.834 E0.02010
G1 X150.108 Y113.102 E0.02021
G1 X149.502 Y113.189 E0.01919
G1 X100.438 Y113.188 E1.53838
G1 X99.762 Y113.060 E0.02157
G1 X99.162 Y112.732 E0.02146
G1 X98.690 Y112.231 E0.02157
G1 X98.398 Y111.608 E0.02157
G1 X98.311 Y111.013 E0.01885
G1 X98.323 Y98.777 E0.38364
G1 X98.483 Y98.150 E0.02032
G1 X98.790 Y97.647 E0.01844
G1 F8640
G1 X99.306 Y97.166 E-0.16296
G1 X99.892 Y96.898 E-0.14883
G1 X100.498 Y96.811 E-0.14131
G1 X101.827 Y96.811 E-0.30690
G1 E-0.04000 F2100.00000
G1 Z0.800 F10800.000
G1 X142.160 Y105.000
G1 Z0.200
G1 E0.80000 F2100.00000
G1 F1200
G1 X142.210 Y104.524 E0.01502
G1 X142.305 Y104.190 E0.01088
G1 X142.515 Y103.760 E0.01502
G1 X142.817 Y103.374 E0.01534
G1 X143.183 Y103.066 E0.01501
G1 X143.484 Y102.893 E0.01088
G1 X143.934 Y102.729 E0.01502
G1 X144.418 Y102.661 E0.01534
G1 X144.906 Y102.695 E0.01533
G1 X145.362 Y102.826 E0.01487
G1 X145.678 Y102.979 E0.01101
G1 X146.066 Y103.261 E0.01503
G1 X146.393 Y103.624 E0.01534
G1 X146.638 Y104.048 E0.01534
G1 X146.789 Y104.513 E0.01534
G1 X146.840 Y105.000 E0.01534
G1 X146.790 Y105.476 E0.01502
G1 X146.695 Y105.810 E0.01088
G1 X146.485 Y106.240 E0.01502
G1 X146.183 Y106.626 E0.01534
G1 X145.809 Y106.940 E0.01534
G1 X145.386 Y107.165 E0.01502
G1 X145.056 Y107.272 E0.01088
G1 X144.582 Y107.339 E0.01502
G1 X144.094 Y107.305 E0.01533
G1 X143.638 Y107.174 E0.01487
G1 X143.322 Y107.021 E0.01101
G1 X142.934 Y106.739 E0.01503
G1 X142.607 Y106.376 E0.01534
G1 X142.362 Y105.952 E0.01534
G1 X142.211 Y105.487 E0.01534
G1 X142.166 Y105.060 E0.01346
G1 X142.541 Y105.020 F10800.000
G1 F1200
G1 X142.581 Y104.596 E0.01337
G1 X142.659 Y104.326 E0.00881
G1 X142.837 Y103.961 E0.01274
G1 X143.089 Y103.638 E0.01286
G1 X143.400 Y103.377 E0.01274
G1 X143.644 Y103.236 E0.00881
G1 X144.026 Y103.097 E0.01274
G1 X144.432 Y103.040 E0.01286
G1 X144.840 Y103.069 E0.01285
G1 X145.227 Y103.179 E0.01261
G1 X145.483 Y103.304 E0.00894
G1 X145.812 Y103.543 E0.01274
G1 X146.087 Y103.847 E0.01286
G1 X146.292 Y104.202 E0.01285
G1 X146.418 Y104.592 E0.01286
G1 X146.461 Y105.000 E0.01285
G1 X146.419 Y105.404 E0.01274
G1 X146.341 Y105.674 E0.00881
G1 X146.163 Y106.039 E0.01274
G1 X145.911 Y106.362 E0.01286
G1 X145.597 Y106.626 E0.01285
G1 X145.238 Y106.817 E0.01274
G1 X144.971 Y106.903 E0.00881
G1 X144.568 Y106.960 E0.01274
G1 X144.160 Y106.931 E0.01285
G1 X143.773 Y106.821 E0.01261
G1 X143.517 Y106.696 E0.00894
G1 X143.188 Y106.457 E0.01274
G1 X142.913 Y106.153 E0.01286
G1 X142.708 Y105.798 E0.01285
G1 X142.582 Y105.408 E0.01286
G1 X142.547 Y105.080 E0.01033
G1 X142.193 Y104.823 F10800.000
G1 F8640
G1 X142.581 Y104.596 E-0.11204
G1 X142.659 Y104.326 E-0.06486
G1 X142.837 Y103.961 E-0.09382
G1 X143.089 Y103.638 E-0.09467
G1 X143.400 Y103.377 E-0.09380
G1 X143.644 Y103.236 E-0.06485
G1 X144.026 Y103.097 E-0.09382
G1 X144.432 Y103.040 E-0.09467
G1 X144.637 Y103.054 E-0.04746
G1 E-0.04000 F2100.00000
G1 Z0.800 F10800.000
G1 X107.840 Y105.000
G1 Z0.200
G1 E0.80000 F2100.00000
G1 F1200
G1 X107.790 Y105.476 E0.01501
G1 X107.695 Y105.810 E0.01088
G1 X107.485 Y106.240 E0.01502
G1 X107.183 Y106.626 E0.01534
G1 X106.817 Y106.934 E0.01501
G1 X106.516 Y107.107 E0.01088
G1 X106.066 Y107.271 E0.01502
G1 X105.582 Y107.339 E0.01534
G1 X105.094 Y107.305 E0.01533
G1 X104.638 Y107.174 E0.01487
G1 X104.322 Y107.021 E0.01101
G1 X103.934 Y106.739 E0.01503
G1 X103.607 Y106.376 E0.01534
G1 X103.362 Y105.952 E0.01534
G1 X103.211 Y105.487 E0.01534
G1 X103.160 Y105.000 E0.01534
G1 X103.210 Y104.524 E0.01501
G1 X103.305 Y104.190 E0.01088
G1 X103.515 Y103.760 E0.01502
G1 X103.817 Y103.374 E0.01534
G1 X104.191 Y103.060 E0.01534
G1 X104.614 Y102.835 E0.01502
G1 X104.944 Y102.728 E0.01088
G1 X105.418 Y102.661 E0.01502
G1 X105.906 Y102.695 E0.01533
G1 X106.362 Y102.826 E0.01487
G1 X106.678 Y102.979 E0.01101
G1 X107.066 Y103.261 E0.01503
G1 X107.393 Y103.624 E0.01534
G1 X107.638 Y104.048 E0.01534
G1 X107.789 Y104.513 E0.01534
G1 X107.834 Y104.940 E0.01346
G1 X107.459 Y104.980 F10800.000
G1 F1200
G1 X107.419 Y105.404 E0.01337
G1 X107.341 Y105.674 E0.00881
G1 X107.163 Y106.039 E0.01274
G1 X106.911 Y106.362 E0.01286
G1 X106.600 Y106.623 E0.01274
G1 X106.356 Y106.764 E0.00881
G1 X105.974 Y106.903 E0.01274
G1 X105.568 Y106.960 E0.01286
G1 X105.160 Y106.931 E0.01285
G1 X104.773 Y106.821 E0.01261
G1 X104.517 Y106.696 E0.00894
G1 X104.188 Y106.457 E0.01274
G1 X103.913 Y106.153 E0.01286
G1 X103.708 Y105.798 E0.01285
G1 X103.582 Y105.408 E0.01286
G1 X103.539 Y105.000 E0.01285
G1 X103.581 Y104.596 E0.01274
G1 X103.659 Y104.326 E0.00881
G1 X103.837 Y103.961 E0.01274
G1 X104.089 Y103.638 E0.01286
G1 X104.403 Y103.374 E0.01285
G1 X104.762 Y103.183 E0.01274
G1 X105.029 Y103.097 E0.00881
G1 X105.432 Y103.040 E0.01274
G1 X105.840 Y103.069 E0.01285
G1 X106.227 Y103.179 E0.01261
G1 X106.483 Y103.304 E0.00894
G1 X106.812 Y103.543 E0.01275
G1 X107.087 Y103.847 E0.01286
G1 X107.292 Y104.202 E0.01285
G1 X107.418 Y104.592 E0.01286
G1 X107.453 Y104.920 E0.01033
G1 X107.807 Y105.177 F10800.000
G1 F8640
G1 X107.419 Y105.404 E-0.11204
G1 X107.341 Y105.674 E-0.06486
G1 X107.163 Y106.039 E-0.09382
G1 X106.911 Y106.362 E-0.09467
G1 X106.600 Y106.623 E-0.09380
G1 X106.356 Y106.764 E-0.06485
G1 X105.974 Y106.903 E-0.09382
G1 X105.568 Y106.960 E-0.09467
G1 X105.363 Y106.946 E-0.04746
G1 E-0.04000 F2100.00000
G1 Z0.800 F10800.000
G1 X101.087 Y99.587
G1 Z0.200
G1 E0.80000 F2100.00000
G1 F1200
G1 X148.913 Y99.587 E1.49955
G1 X148.913 Y110.413 E0.33944
G1 X101.087 Y110.413 E1.49955
G1 X101.087 Y99.647 E0.33756
G1 X100.710 Y99.210 F10800.000
G1 F1200
G1 X149.290 Y99.210 E1.52319
G1 X149.290 Y110.790 E0.36308
G1 X100.710 Y110.790 E1.52319
G1 X100.710 Y99.270 E0.36120
G1 X101.109 Y99.241 F10800.000
G1 F8640
G1 X104.001 Y99.266 E-0.76000
G1 E-0.04000 F2100.00000
G1 Z0.800 F10800.000
G1 X103.121 Y105.575
G1 Z0.200
G1 E0.80000 F2100.00000
G1 F1200
G1 X101.370 Y103.824 E0.07783
G1 X101.370 Y103.290 E0.01681
G1 X102.895 Y104.815 E0.06779
G1 X102.931 Y104.470 E0.01091
G1 X102.965 Y104.350 E0.00390
G1 X101.370 Y102.755 E0.07092
G1 X101.370 Y102.220 E0.01681
G1 X103.105 Y103.956 E0.07714
G1 X103.283 Y103.598 E0.01254
G1 X101.370 Y101.686 E0.08503
G1 X101.370 Y101.151 E0.01681
G1 X103.517 Y103.298 E0.09545
G1 X103.612 Y103.177 E0.00485
G1 X103.785 Y103.032 E0.00710
G1 X101.370 Y100.617 E0.10736
G1 X101.370 Y100.082 E0.01681
G1 X104.084 Y102.796 E0.12067
G1 X104.433 Y102.611 E0.01243
G1 X101.692 Y99.870 E0.12185
G1 X102.227 Y99.870 E0.01681
G1 X104.826 Y102.469 E0.11553
G1 X105.286 Y102.394 E0.01465
G1 X102.762 Y99.870 E0.11222
G1 X103.296 Y99.870 E0.01681
G1 X105.833 Y102.407 E0.11277
G1 X105.955 Y102.415 E0.00385
G1 X106.464 Y102.560 E0.01662
G1 X106.576 Y102.615 E0.00393
G1 X103.831 Y99.870 E0.12204
G1 X104.366 Y99.870 E0.01681
G1 X114.626 Y110.130 E0.45612
G1 X115.160 Y110.130 E0.01681
G1 X104.900 Y99.870 E0.45612
G1 X105.435 Y99.870 E0.01681
G1 X115.695 Y110.130 E0.45612
G1 X116.230 Y110.130 E0.01681
G1 X105.969 Y99.870 E0.45612
G1 X106.504 Y99.870 E0.01681
G1 X116.764 Y110.130 E0.45612
G1 X117.299 Y110.130 E0.01681
G1 X107.039 Y99.870 E0.45612
G1 X107.573 Y99.870 E0.01681
G1 X117.834 Y110.130 E0.45612
G1 X118.368 Y110.130 E0.01681
G1 X108.108 Y99.870 E0.45612
G1 X108.643 Y99.870 E0.01681
G1 X118.903 Y110.130 E0.45612
G1 X119.438 Y110.130 E0.01681
G1 X109.177 Y99.870 E0.45612
G1 X109.712 Y99.870 E0.01681
G1 X119.972 Y110.130 E0.45612
G1 X120.507 Y110.130 E0.01681
G1 X110.247 Y99.870 E0.45612
G1 X110.781 Y99.870 E0.01681
G1 X121.041 Y110.130 E0.45612
G1 X121.576 Y110.130 E0.01681
G1 X111.316 Y99.870 E0.45612
G1 X111.850 Y99.870 E0.01681
G1 X122.111 Y110.130 E0.45612
G1 X122.645 Y110.130 E0.01681
G1 X112.385 Y99.870 E0.45612
G1 X112.920 Y99.870 E0.01681
G1 X123.180 Y110.130 E0.45612
G1 X123.715 Y110.130 E0.01681
G1 X113.454 Y99.870 E0.45612
G1 X113.989 Y99.870 E0.01681
G1 X124.249 Y110.130 E0.45612
G1 X124.784 Y110.130 E0.01681
G1 X114.524 Y99.870 E0.45612
G1 X115.058 Y99.870 E0.01681
G1 X125.318 Y110.130 E0.45612
G1 X125.853 Y110.130 E0.01681
G1 X115.593 Y99.870 E0.45612
G1 X116.127 Y99.870 E0.01681
G1 X126.388 Y110.130 E0.45612
G1 X126.922 Y110.130 E0.01681
G1 X116.662 Y99.870 E0.45612
G1 X117.197 Y99.870 E0.01681
G1 X127.457 Y110.130 E0.45612
G1 X127.992 Y110.130 E0.01681
G1 X117.731 Y99.870 E0.45612
G1 X118.266 Y99.870 E0.01681
G1 X128.526 Y110.130 E0.45612
G1 X129.061 Y110.130 E0.01681
G1 X118.801 Y99.870 E0.45612
G1 X119.335 Y99.870 E0.01681
G1 X129.595 Y110.130 E0.45612
G1 X130.130 Y110.130 E0.01681
G1 X119.870 Y99.870 E0.45612
G1 X120.404 Y99.870 E0.01681
G1 X130.665 Y110.130 E0.45612
G1 X131.199 Y110.130 E0.01681
G1 X120.939 Y99.870 E0.45612
G1 X121.474 Y99.870 E0.01681
G1 X131.734 Y110.130 E0.45612
G1 X132.269 Y110.130 E0.01681
G1 X122.008 Y99.870 E0.45612
G1 X122.543 Y99.870 E0.01681
G1 X132.803 Y110.130 E0.45612
G1 X133.338 Y110.130 E0.01681
G1 X123.078 Y99.870 E0.45612
G1 X123.612 Y99.870 E0.01681
G1 X133.873 Y110.130 E0.45612
G1 X134.407 Y110.130 E0.01681
G1 X124.147 Y99.870 E0.45612
G1 X124.682 Y99.870 E0.01681
G1 X134.942 Y110.130 E0.45612
M73 Q2 S49
G1 X135.476 Y110.130 E0.01681
G1 X125.216 Y99.870 E0.45612
M73 P2 R48
G1 X125.751 Y99.870 E0.01681
G1 X136.011 Y110.130 E0.45612
G1 X136.546 Y110.130 E0.01681
G1 X126.285 Y99.870 E0.45612
G1 X126.820 Y99.870 E0.01681
G1 X137.080 Y110.130 E0.45612
G1 X137.615 Y110.130 E0.01681
G1 X127.355 Y99.870 E0.45612
G1 X127.889 Y99.870 E0.01681
G1 X138.150 Y110.130 E0.45612
G1 X138.684 Y110.130 E0.01681
G1 X128.424 Y99.870 E0.45612
G1 X128.959 Y99.870 E0.01681
G1 X139.219 Y110.130 E0.45612
G1 X139.753 Y110.130 E0.01681
G1 X129.493 Y99.870 E0.45612
G1 X130.028 Y99.870 E0.01681
G1 X140.288 Y110.130 E0.45612
G1 X140.823 Y110.130 E0.01681
G1 X130.562 Y99.870 E0.45612
G1 X131.097 Y99.870 E0.01681
G1 X141.357 Y110.130 E0.45612
G1 X141.892 Y110.130 E0.01681
G1 X131.632 Y99.870 E0.45612
G1 X132.166 Y99.870 E0.01681
G1 X142.427 Y110.130 E0.45612
G1 X142.961 Y110.130 E0.01681
G1 X132.701 Y99.870 E0.45612
G1 X133.236 Y99.870 E0.01681
G1 X143.496 Y110.130 E0.45612
G1 X144.030 Y110.130 E0.01681
G1 X133.770 Y99.870 E0.45612
G1 X134.305 Y99.870 E0.01681
G1 X144.565 Y110.130 E0.45612
G1 X145.100 Y110.130 E0.01681
G1 X134.839 Y99.870 E0.45612
G1 X135.374 Y99.870 E0.01681
G1 X145.804 Y110.300 E0.46366
G1 F8640
G1 X143.477 Y107.972 E-0.76000
G1 E-0.04000 F2100.00000
G1 Z0.800 F10800.000
G1 X143.424 Y107.385
G1 Z0.200
G1 E0.80000 F2100.00000
G1 F1200
G1 X146.169 Y110.130 E0.12204
G1 X146.704 Y110.130 E0.01681
G1 X144.167 Y107.593 E0.11277
G1 X144.592 Y107.623 E0.01339
G1 X144.714 Y107.606 E0.00388
G1 X147.238 Y110.130 E0.11222
G1 X147.773 Y110.130 E0.01681
G1 X145.174 Y107.531 E0.11553
G1 X145.567 Y107.389 E0.01312
G1 X148.308 Y110.130 E0.12185
G1 X148.630 Y110.130 E0.01014
G1 X148.630 Y109.918 E0.00666
G1 X145.916 Y107.204 E0.12067
G1 X146.215 Y106.968 E0.01197
G1 X148.630 Y109.384 E0.10736
G1 X148.630 Y108.849 E0.01681
G1 X146.483 Y106.702 E0.09545
G1 X146.717 Y106.402 E0.01197
G1 X148.630 Y108.314 E0.08503
G1 X148.630 Y107.780 E0.01681
G1 X146.895 Y106.044 E0.07714
G1 X146.960 Y105.911 E0.00465
G1 X147.035 Y105.650 E0.00856
G1 X148.630 Y107.245 E0.07092
G1 X148.630 Y106.710 E0.01681
G1 X147.105 Y105.185 E0.06779
G1 X147.125 Y105.000 E0.00586
G1 X147.086 Y104.632 E0.01165
G1 X148.800 Y106.345 E0.07619
G1 F8640
G1 X147.086 Y104.632 E-0.55965
G1 X147.125 Y105.000 E-0.08554
G1 X147.105 Y105.185 E-0.04305
G1 X147.325 Y105.405 E-0.07176
G1 E-0.04000 F2100.00000
G1 Z0.800 F10800.000
G1 X148.800 Y100.464
G1 Z0.200
G1 E0.80000 F2100.00000
G1 F1200
G1 X148.205 Y99.870 E0.02643
G1 X147.671 Y99.870 E0.01681
G1 X148.630 Y100.829 E0.04266
G1 X148.630 Y101.364 E0.01681
G1 X147.136 Y99.870 E0.06642
G1 X146.601 Y99.870 E0.01681
G1 X148.630 Y101.899 E0.09019
G1 X148.630 Y102.433 E0.01681
G1 X146.067 Y99.870 E0.11396
G1 X145.532 Y99.870 E0.01681
G1 X148.630 Y102.968 E0.13772
G1 X148.630 Y103.503 E0.01681
G1 X144.997 Y99.870 E0.16149
G1 X144.463 Y99.870 E0.01681
G1 X148.630 Y104.037 E0.18526
G1 X148.630 Y104.572 E0.01681
G1 X143.928 Y99.870 E0.20902
G1 X143.394 Y99.870 E0.01681
G1 X148.630 Y105.106 E0.23279
G1 X148.630 Y105.641 E0.01681
G1 X142.859 Y99.870 E0.25656
G1 X142.324 Y99.870 E0.01681
G1 X144.863 Y102.409 E0.11286
G1 X144.408 Y102.377 E0.01433
G1 X144.310 Y102.391 E0.00311
G1 X141.790 Y99.870 E0.11206
G1 X141.255 Y99.870 E0.01681
G1 X143.846 Y102.460 E0.11516
G1 X143.454 Y102.603 E0.01311
G1 X140.720 Y99.870 E0.12150
G1 X140.186 Y99.870 E0.01681
G1 X143.102 Y102.787 E0.12966
G1 X142.800 Y103.019 E0.01198
G1 X139.651 Y99.870 E0.13999
G1 X139.116 Y99.870 E0.01681
G1 X142.529 Y103.283 E0.15171
G1 X142.295 Y103.583 E0.01197
G1 X138.582 Y99.870 E0.16505
G1 X138.047 Y99.870 E0.01681
G1 X142.114 Y103.937 E0.18080
G1 X142.040 Y104.089 E0.00530
G1 X141.971 Y104.329 E0.00785
G1 X137.513 Y99.870 E0.19822
G1 X136.978 Y99.870 E0.01681
G1 X141.897 Y104.789 E0.21869
G1 X141.875 Y105.000 E0.00666
G1 X141.911 Y105.337 E0.01066
G1 X136.443 Y99.870 E0.24305
G1 X135.909 Y99.870 E0.01681
G1 X142.100 Y106.061 E0.27524
G1 F8640
G1 X139.773 Y103.734 E-0.76000
G1 E-0.04000 F2100.00000
G1 Z0.800 F10800.000
G1 X114.261 Y110.300
G1 Z0.200
G1 E0.80000 F2100.00000
G1 F1200
G1 X107.900 Y103.939 E0.28278
G1 X108.067 Y104.454 E0.01704
G1 X108.089 Y104.663 E0.00659
G1 X113.557 Y110.130 E0.24305
G1 X113.022 Y110.130 E0.01681
G1 X108.103 Y105.211 E0.21869
G1 X108.069 Y105.530 E0.01011
G1 X108.029 Y105.671 E0.00461
G1 X112.487 Y110.130 E0.19821
G1 X111.953 Y110.130 E0.01681
G1 X107.886 Y106.063 E0.18080
G1 X107.705 Y106.417 E0.01249
G1 X111.418 Y110.130 E0.16505
G1 X110.883 Y110.130 E0.01681
G1 X107.471 Y106.717 E0.15171
G1 X107.388 Y106.823 E0.00422
G1 X107.200 Y106.981 E0.00772
G1 X110.349 Y110.130 E0.13999
G1 X109.814 Y110.130 E0.01681
G1 X106.897 Y107.213 E0.12966
G1 X106.636 Y107.364 E0.00948
G1 X106.546 Y107.397 E0.00301
G1 X109.280 Y110.130 E0.12150
G1 X108.745 Y110.130 E0.01681
G1 X106.154 Y107.540 E0.11516
G1 X105.689 Y107.609 E0.01478
G1 X108.210 Y110.130 E0.11206
G1 X107.676 Y110.130 E0.01681
G1 X104.918 Y107.372 E0.12261
G1 F8640
G1 X107.245 Y109.699 E-0.76000
G1 E-0.04000 F2100.00000
G1 Z0.800 F10800.000
G1 X107.311 Y110.300
G1 Z0.200
G1 E0.80000 F2100.00000
G1 F1200
