; generated by PrusaSlicer 2.2.0+win64 on 2020-07-29 at 13:19:15 UTC

; 

; external perimeters extrusion width = 0.45mm
; perimeters extrusion width = 0.45mm
; infill extrusion width = 0.45mm
; solid infill extrusion width = 0.45mm
; top infill extrusion width = 0.40mm
; first layer extrusion width = 0.42mm

M73 P0 R18
M73 Q0 S18
M201 X1000 Y1000 Z200 E5000 ; sets maximum accelerations, mm/sec^2
M203 X200 Y200 Z12 E120 ; sets maximum feedrates, mm/sec
M204 P1250 R1250 T1250 ; sets acceleration (P, T) and retract acceleration (R), mm/sec^2
M205 X8.00 Y8.00 Z0.40 E4.50 ; sets the jerk limits, mm/sec
M205 S0 T0 ; sets the minimum extruding and travel feed rate, mm/sec
M107
M862.3 P "MK3S" ; printer model check
M862.1 P0.4 ; nozzle diameter check
M115 U3.9.0 ; tell printer latest fw version
G90 ; use absolute coordinates
M83 ; extruder relative mode
M104 S215 ; set extruder temp
M140 S60 ; set bed temp
M190 S60 ; wait for bed temp
M109 S215 ; wait for extruder temp
G28 W ; home all without mesh bed level
G80 ; mesh bed leveling
G1 Y-3.0 F1000.0 ; go outside print area
G92 E0.0
G1 X60.0 E9.0 F1000.0 ; intro line
M73 Q0 S18
M73 P0 R18
G1 X100.0 E12.5 F1000.0 ; intro line
G92 E0.0
M221 S95
G21 ; set units to millimeters
G90 ; use absolute coordinates
M83 ; use relative distances for extrusion
M900 K0.06 ; Filament gcode LA 1.5
M900 K30 ; Filament gcode LA 1.0
;BEFORE_LAYER_CHANGE
G92 E0.0
;0.2


G1 E-0.80000 F2100.00000
G1 Z0.600 F10800.000
;AFTER_LAYER_CHANGE
;0.2
G1 X103.019 Y99.686
G1 Z0.200
G1 E0.80000 F2100.00000
M204 S1000
G1 F1200.000
G1 X103.636 Y99.208 E0.02447
G1 X104.361 Y98.921 E0.02447
G1 X104.995 Y98.846 E0.02001
G1 X145.004 Y98.846 E1.25445
G1 X146.024 Y99.043 E0.03258
G1 X146.899 Y99.605 E0.03258
G1 X147.503 Y100.451 E0.03258
G1 X147.750 Y101.456 E0.03246
G1 X147.754 Y108.420 E0.21837
G1 X147.690 Y108.990 E0.01796
G1 X147.423 Y109.710 E0.02409
G1 X146.966 Y110.328 E0.02409
G1 X146.354 Y110.798 E0.02422
G1 X145.639 Y111.079 E0.02409
G1 X145.005 Y111.154 E0.02001
G1 X104.873 Y111.151 E1.25831
G1 X104.006 Y110.969 E0.02777
G1 X103.242 Y110.520 E0.02777
G1 X102.662 Y109.856 E0.02765
G1 X102.321 Y109.039 E0.02777
G1 X102.246 Y108.405 E0.02001
G1 X102.246 Y101.579 E0.21400
G1 X102.300 Y101.054 E0.01656
G1 X102.562 Y100.319 E0.02447
G1 X102.984 Y99.735 E0.02259
G1 F8640.000
G1 X103.636 Y99.208 E-0.19355
G1 X104.361 Y98.921 E-0.18021
G1 X104.995 Y98.846 E-0.14735
G1 X106.030 Y98.846 E-0.23889
G1 E-0.04000 F2100.00000
G1 Z0.800 F10800.000
G1 X102.662 Y101.168
G1 Z0.200
G1 E0.80000 F2100.00000
G1 F1200.000
G1 X102.884 Y100.518 E0.02154
G1 X103.284 Y99.955 E0.02166
G1 X103.826 Y99.533 E0.02154
G1 X104.470 Y99.283 E0.02166
G1 X104.995 Y99.223 E0.01657
G1 X145.004 Y99.223 E1.25444
G1 X145.888 Y99.395 E0.02825
G1 X146.642 Y99.881 E0.02813
G1 X147.164 Y100.616 E0.02825
G1 X147.375 Y101.492 E0.02825
G1 X147.331 Y108.865 E0.23118
G1 X147.104 Y109.506 E0.02130
G1 X146.703 Y110.059 E0.02142
G1 X146.164 Y110.473 E0.02130
G1 X145.530 Y110.717 E0.02130
G1 X145.005 Y110.777 E0.01657
G1 X104.901 Y110.775 E1.25743
G1 X104.147 Y110.619 E0.02414
G1 X103.480 Y110.227 E0.02426
G1 X102.976 Y109.646 E0.02414
G1 X102.683 Y108.930 E0.02426
G1 X102.623 Y108.405 E0.01657
G1 X102.662 Y101.228 E0.22502
G1 F8640.000
G1 X102.884 Y100.518 E-0.17183
G1 X103.284 Y99.955 E-0.15950
G1 X103.826 Y99.533 E-0.15863
G1 X104.470 Y99.283 E-0.15950
G1 X104.946 Y99.229 E-0.11053
G1 E-0.04000 F2100.00000
G1 Z0.800 F10800.000
G1 X105.787 Y102.387
G1 Z0.200
G1 E0.80000 F2100.00000
G1 F1200.000
G1 X144.213 Y102.387 E1.20482
G1 X144.213 Y107.613 E0.16385
G1 X105.787 Y107.613 E1.20482
G1 X105.787 Y102.447 E0.16197
G1 X105.410 Y102.010 F10800.000
G1 F1200.000
G1 X144.590 Y102.010 E1.22846
G1 X144.590 Y107.990 E0.18750
G1 X105.410 Y107.990 E1.22846
G1 X105.410 Y102.070 E0.18562
G1 X105.809 Y102.030 F10800.000
G1 F8640.000
G1 X108.701 Y102.065 E-0.76000
G1 E-0.04000 F2100.00000
G1 Z0.800 F10800.000
G1 X144.100 Y103.264
G1 Z0.200
G1 E0.80000 F2100.00000
G1 F1200.000
G1 X143.506 Y102.670 E0.02639
G1 X142.971 Y102.670 E0.01678
G1 X143.930 Y103.629 E0.04259
G1 X143.930 Y104.163 E0.01678
G1 X142.437 Y102.670 E0.06632
G1 X141.903 Y102.670 E0.01678
G1 X143.930 Y104.697 E0.09005
G1 X143.930 Y105.231 E0.01678
G1 X141.369 Y102.670 E0.11379
G1 X140.834 Y102.670 E0.01678
G1 X143.930 Y105.766 E0.13752
G1 X143.930 Y106.300 E0.01678
G1 X140.300 Y102.670 E0.16125
G1 X139.766 Y102.670 E0.01678
G1 X143.930 Y106.834 E0.18499
G1 X143.930 Y107.330 E0.01558
G1 X143.892 Y107.330 E0.00120
G1 X139.232 Y102.670 E0.20702
G1 X138.697 Y102.670 E0.01678
G1 X143.358 Y107.330 E0.20702
G1 X142.823 Y107.330 E0.01678
G1 X138.163 Y102.670 E0.20702
G1 X137.629 Y102.670 E0.01678
G1 X142.289 Y107.330 E0.20702
G1 X141.755 Y107.330 E0.01678
G1 X137.095 Y102.670 E0.20702
G1 X136.560 Y102.670 E0.01678
G1 X141.221 Y107.330 E0.20702
G1 X140.686 Y107.330 E0.01678
G1 X136.026 Y102.670 E0.20702
G1 X135.492 Y102.670 E0.01678
G1 X140.152 Y107.330 E0.20702
G1 X139.618 Y107.330 E0.01678
G1 X134.958 Y102.670 E0.20702
G1 X134.423 Y102.670 E0.01678
G1 X139.084 Y107.330 E0.20702
G1 X138.549 Y107.330 E0.01678
G1 X133.889 Y102.670 E0.20702
G1 X133.355 Y102.670 E0.01678
G1 X138.015 Y107.330 E0.20702
G1 X137.481 Y107.330 E0.01678
G1 X132.821 Y102.670 E0.20702
G1 X132.286 Y102.670 E0.01678
G1 X136.947 Y107.330 E0.20702
G1 X136.412 Y107.330 E0.01678
G1 X131.752 Y102.670 E0.20702
G1 X131.218 Y102.670 E0.01678
G1 X135.878 Y107.330 E0.20702
G1 X135.344 Y107.330 E0.01678
G1 X130.684 Y102.670 E0.20702
G1 X130.149 Y102.670 E0.01678
G1 X134.810 Y107.330 E0.20702
G1 X134.275 Y107.330 E0.01678
G1 X129.615 Y102.670 E0.20702
G1 X129.081 Y102.670 E0.01678
G1 X133.741 Y107.330 E0.20702
G1 X133.207 Y107.330 E0.01678
G1 X128.547 Y102.670 E0.20702
G1 X128.012 Y102.670 E0.01678
G1 X132.673 Y107.330 E0.20702
G1 X132.138 Y107.330 E0.01678
G1 X127.478 Y102.670 E0.20702
G1 X126.944 Y102.670 E0.01678
G1 X131.604 Y107.330 E0.20702
G1 X131.070 Y107.330 E0.01678
G1 X126.410 Y102.670 E0.20702
G1 X125.875 Y102.670 E0.01678
G1 X130.536 Y107.330 E0.20702
G1 X130.001 Y107.330 E0.01678
G1 X125.341 Y102.670 E0.20702
G1 X124.807 Y102.670 E0.01678
G1 X129.467 Y107.330 E0.20702
G1 X128.933 Y107.330 E0.01678
G1 X124.273 Y102.670 E0.20702
G1 X123.738 Y102.670 E0.01678
G1 X128.399 Y107.330 E0.20702
G1 X127.864 Y107.330 E0.01678
G1 X123.204 Y102.670 E0.20702
G1 X122.670 Y102.670 E0.01678
G1 X127.330 Y107.330 E0.20702
G1 X126.796 Y107.330 E0.01678
G1 X122.136 Y102.670 E0.20702
G1 X121.601 Y102.670 E0.01678
G1 X126.262 Y107.330 E0.20702
G1 X125.727 Y107.330 E0.01678
G1 X121.067 Y102.670 E0.20702
G1 X120.533 Y102.670 E0.01678
G1 X125.193 Y107.330 E0.20702
G1 X124.659 Y107.330 E0.01678
G1 X119.999 Y102.670 E0.20702
G1 X119.464 Y102.670 E0.01678
G1 X124.125 Y107.330 E0.20702
G1 X123.590 Y107.330 E0.01678
G1 X118.930 Y102.670 E0.20702
G1 X118.396 Y102.670 E0.01678
G1 X123.056 Y107.330 E0.20702
G1 X122.522 Y107.330 E0.01678
G1 X117.862 Y102.670 E0.20702
G1 X117.327 Y102.670 E0.01678
G1 X121.988 Y107.330 E0.20702
G1 X121.453 Y107.330 E0.01678
G1 X116.793 Y102.670 E0.20702
G1 X116.259 Y102.670 E0.01678
G1 X120.919 Y107.330 E0.20702
G1 X120.385 Y107.330 E0.01678
G1 X115.725 Y102.670 E0.20702
G1 X115.190 Y102.670 E0.01678
G1 X119.851 Y107.330 E0.20702
G1 X119.316 Y107.330 E0.01678
G1 X114.656 Y102.670 E0.20702
G1 X114.122 Y102.670 E0.01678
G1 X118.782 Y107.330 E0.20702
G1 X118.248 Y107.330 E0.01678
G1 X113.587 Y102.670 E0.20702
G1 X113.053 Y102.670 E0.01678
G1 X117.713 Y107.330 E0.20702
G1 X117.179 Y107.330 E0.01678
G1 X112.519 Y102.670 E0.20702
G1 X111.985 Y102.670 E0.01678
G1 X116.645 Y107.330 E0.20702
G1 X116.111 Y107.330 E0.01678
G1 X111.450 Y102.670 E0.20702
G1 X110.916 Y102.670 E0.01678
G1 X115.576 Y107.330 E0.20702
G1 X115.042 Y107.330 E0.01678
G1 X110.382 Y102.670 E0.20702
G1 X109.848 Y102.670 E0.01678
G1 X114.508 Y107.330 E0.20702
G1 X113.974 Y107.330 E0.01678
G1 X109.313 Y102.670 E0.20702
G1 X108.779 Y102.670 E0.01678
G1 X113.439 Y107.330 E0.20702
G1 X112.905 Y107.330 E0.01678
G1 X108.245 Y102.670 E0.20702
G1 X107.711 Y102.670 E0.01678
G1 X112.371 Y107.330 E0.20702
G1 X111.837 Y107.330 E0.01678
G1 X107.176 Y102.670 E0.20702
G1 X106.642 Y102.670 E0.01678
G1 X111.302 Y107.330 E0.20702
G1 X110.768 Y107.330 E0.01678
G1 X106.108 Y102.670 E0.20702
G1 X106.070 Y102.670 E0.00120
G1 X106.070 Y103.166 E0.01559
G1 X110.234 Y107.330 E0.18498
G1 X109.700 Y107.330 E0.01678
G1 X106.070 Y103.700 E0.16125
G1 X106.070 Y104.235 E0.01678
G1 X109.165 Y107.330 E0.13751
G1 X108.631 Y107.330 E0.01678
G1 X106.070 Y104.769 E0.11378
G1 X106.070 Y105.303 E0.01678
G1 X108.097 Y107.330 E0.09005
G1 X107.563 Y107.330 E0.01678
G1 X106.070 Y105.837 E0.06631
G1 X106.070 Y106.372 E0.01678
G1 X107.028 Y107.330 E0.04258
G1 X106.494 Y107.330 E0.01678
G1 X105.900 Y106.736 E0.02639
M106 S255
;BEFORE_LAYER_CHANGE
G92 E0.0
;0.35


G1 F8640.000
G1 X106.494 Y107.330 E-0.19395
G1 X107.028 Y107.330 E-0.12336
G1 X106.070 Y106.372 E-0.31300
G1 X106.070 Y105.837 E-0.12336
G1 X106.089 Y105.857 E-0.00633
G1 E-0.04000 F2100.00000
G1 Z0.800 F10800.000
;AFTER_LAYER_CHANGE
;0.35
G1 X102.662 Y109.856
G1 Z0.350
G1 E0.80000 F2100.00000
G1 F3000.000
G1 X102.321 Y109.039 E0.02142
G1 X102.246 Y108.405 E0.01543
G1 X102.246 Y101.579 E0.16507
G1 X102.300 Y101.054 E0.01277
G1 X102.562 Y100.319 E0.01888
G1 X103.019 Y99.686 E0.01888
G1 X103.636 Y99.208 E0.01888
G1 X104.361 Y98.921 E0.01888
G1 X104.995 Y98.846 E0.01543
G1 X145.004 Y98.846 E0.96761
G1 X146.024 Y99.043 E0.02513
G1 X146.899 Y99.605 E0.02513
G1 X147.503 Y100.451 E0.02513
G1 X147.750 Y101.456 E0.02504
G1 X147.754 Y108.420 E0.16844
G1 X147.690 Y108.990 E0.01386
G1 X147.423 Y109.710 E0.01858
G1 X146.966 Y110.328 E0.01858
G1 X146.354 Y110.798 E0.01868
G1 X145.639 Y111.079 E0.01858
G1 X145.005 Y111.154 E0.01543
G1 X104.873 Y111.151 E0.97058
G1 X104.006 Y110.969 E0.02142
G1 X103.242 Y110.520 E0.02142
G1 X102.702 Y109.901 E0.01987
G1 X102.984 Y109.656 F10800.000
G1 F3000.000
G1 X102.683 Y108.930 E0.01902
G1 X102.623 Y108.405 E0.01278
G1 X102.662 Y101.168 E0.17502
G1 X102.884 Y100.518 E0.01662
G1 X103.284 Y99.955 E0.01671
G1 X103.826 Y99.533 E0.01662
G1 X104.470 Y99.283 E0.01671
G1 X104.995 Y99.223 E0.01278
G1 X145.004 Y99.223 E0.96761
G1 X145.888 Y99.395 E0.02179
G1 X146.642 Y99.881 E0.02170
G1 X147.164 Y100.616 E0.02179
G1 X147.375 Y101.492 E0.02179
G1 X147.331 Y108.865 E0.17832
G1 X147.104 Y109.506 E0.01643
G1 X146.703 Y110.059 E0.01652
G1 X146.164 Y110.473 E0.01643
G1 X145.530 Y110.717 E0.01643
G1 X145.005 Y110.777 E0.01278
G1 X104.901 Y110.775 E0.96991
G1 X104.147 Y110.619 E0.01862
G1 X103.480 Y110.227 E0.01871
G1 X103.024 Y109.701 E0.01684
G1 F8640.000
G1 X102.683 Y108.930 E-0.19477
G1 X102.623 Y108.405 E-0.12200
G1 X102.633 Y106.485 E-0.44323
G1 E-0.04000 F2100.00000
G1 Z0.950 F10800.000
G1 X105.643 Y107.757
G1 Z0.350
G1 E0.80000 F2100.00000
M204 S800
G1 F2700.000
G1 X105.643 Y102.243 E0.14368
G1 X144.357 Y102.243 E1.00873
G1 X144.357 Y107.757 E0.14368
G1 X105.703 Y107.757 E1.00717
M204 S1000
G1 X105.225 Y108.175 F10800.000
M204 S800
G1 F1500.000
G1 X105.225 Y101.825 E0.16545
G1 X144.775 Y101.825 E1.03051
M73 Q6 S17
M73 P6 R17
G1 X144.775 Y108.175 E0.16545
G1 X105.285 Y108.175 E1.02894
M204 S1000
G1 X105.406 Y107.818 F10800.000
G1 F8640.000
G1 X105.254 Y104.884 E-0.76000
G1 E-0.04000 F2100.00000
G1 Z0.950 F10800.000
G1 X143.385 Y107.632
G1 Z0.350
G1 E0.80000 F2100.00000
G1 F3086
G1 X144.044 Y106.974 E0.02431
G1 X144.044 Y106.381 E0.01546
G1 X142.981 Y107.444 E0.03922
G1 X142.389 Y107.444 E0.01546
G1 X144.044 Y105.789 E0.06108
G1 X144.044 Y105.197 E0.01546
G1 X141.797 Y107.444 E0.08294
G1 X141.205 Y107.444 E0.01546
G1 X144.044 Y104.605 E0.10480
G1 X144.044 Y104.013 E0.01546
G1 X140.613 Y107.444 E0.12666
G1 X140.021 Y107.444 E0.01546
G1 X144.044 Y103.421 E0.14852
G1 X144.044 Y102.829 E0.01546
G1 X139.429 Y107.444 E0.17038
G1 X138.837 Y107.444 E0.01546
G1 X143.725 Y102.556 E0.18046
G1 X143.133 Y102.556 E0.01546
G1 X138.245 Y107.444 E0.18046
G1 X137.653 Y107.444 E0.01546
G1 X142.541 Y102.556 E0.18046
G1 X141.949 Y102.556 E0.01546
G1 X137.061 Y107.444 E0.18046
G1 X136.469 Y107.444 E0.01546
G1 X141.357 Y102.556 E0.18046
G1 X140.765 Y102.556 E0.01546
G1 X135.877 Y107.444 E0.18046
G1 X135.285 Y107.444 E0.01546
G1 X140.173 Y102.556 E0.18046
G1 X139.581 Y102.556 E0.01546
G1 X134.693 Y107.444 E0.18046
G1 X134.101 Y107.444 E0.01546
G1 X138.989 Y102.556 E0.18046
G1 X138.397 Y102.556 E0.01546
G1 X133.509 Y107.444 E0.18046
G1 X132.917 Y107.444 E0.01546
G1 X137.804 Y102.556 E0.18046
G1 X137.212 Y102.556 E0.01546
G1 X132.325 Y107.444 E0.18046
G1 X131.733 Y107.444 E0.01546
G1 X136.620 Y102.556 E0.18046
G1 X136.028 Y102.556 E0.01546
G1 X131.141 Y107.444 E0.18046
G1 X130.549 Y107.444 E0.01546
G1 X135.436 Y102.556 E0.18046
G1 X134.844 Y102.556 E0.01546
G1 X129.957 Y107.444 E0.18046
G1 X129.365 Y107.444 E0.01546
G1 X134.252 Y102.556 E0.18046
G1 X133.660 Y102.556 E0.01546
G1 X128.773 Y107.444 E0.18046
G1 X128.180 Y107.444 E0.01546
G1 X133.068 Y102.556 E0.18046
G1 X132.476 Y102.556 E0.01546
G1 X127.588 Y107.444 E0.18046
G1 X126.996 Y107.444 E0.01546
G1 X131.884 Y102.556 E0.18046
G1 X131.292 Y102.556 E0.01546
G1 X126.404 Y107.444 E0.18046
G1 X125.812 Y107.444 E0.01546
G1 X130.700 Y102.556 E0.18046
G1 X130.108 Y102.556 E0.01546
G1 X125.220 Y107.444 E0.18046
G1 X124.628 Y107.444 E0.01546
G1 X129.516 Y102.556 E0.18046
G1 X128.924 Y102.556 E0.01546
G1 X124.036 Y107.444 E0.18046
G1 X123.444 Y107.444 E0.01546
G1 X128.332 Y102.556 E0.18046
G1 X127.740 Y102.556 E0.01546
G1 X122.852 Y107.444 E0.18046
G1 X122.260 Y107.444 E0.01546
G1 X127.148 Y102.556 E0.18046
G1 X126.556 Y102.556 E0.01546
G1 X121.668 Y107.444 E0.18046
G1 X121.076 Y107.444 E0.01546
G1 X125.964 Y102.556 E0.18046
G1 X125.372 Y102.556 E0.01546
G1 X120.484 Y107.444 E0.18046
G1 X119.892 Y107.444 E0.01546
G1 X124.780 Y102.556 E0.18046
G1 X124.188 Y102.556 E0.01546
G1 X119.300 Y107.444 E0.18046
G1 X118.708 Y107.444 E0.01546
G1 X123.596 Y102.556 E0.18046
G1 X123.003 Y102.556 E0.01546
G1 X118.116 Y107.444 E0.18046
G1 X117.524 Y107.444 E0.01546
G1 X122.411 Y102.556 E0.18046
G1 X121.819 Y102.556 E0.01546
G1 X116.932 Y107.444 E0.18046
G1 X116.340 Y107.444 E0.01546
G1 X121.227 Y102.556 E0.18046
G1 X120.635 Y102.556 E0.01546
G1 X115.748 Y107.444 E0.18046
G1 X115.156 Y107.444 E0.01546
G1 X120.043 Y102.556 E0.18046
G1 X119.451 Y102.556 E0.01546
G1 X114.564 Y107.444 E0.18046
G1 X113.972 Y107.444 E0.01546
G1 X118.859 Y102.556 E0.18046
G1 X118.267 Y102.556 E0.01546
G1 X113.380 Y107.444 E0.18046
G1 X112.787 Y107.444 E0.01546
G1 X117.675 Y102.556 E0.18046
G1 X117.083 Y102.556 E0.01546
G1 X112.195 Y107.444 E0.18046
G1 X111.603 Y107.444 E0.01546
G1 X116.491 Y102.556 E0.18046
G1 X115.899 Y102.556 E0.01546
G1 X111.011 Y107.444 E0.18046
G1 X110.419 Y107.444 E0.01546
G1 X115.307 Y102.556 E0.18046
G1 X114.715 Y102.556 E0.01546
G1 X109.827 Y107.444 E0.18046
G1 X109.235 Y107.444 E0.01546
G1 X114.123 Y102.556 E0.18046
G1 X113.531 Y102.556 E0.01546
G1 X108.643 Y107.444 E0.18046
G1 X108.051 Y107.444 E0.01546
G1 X112.939 Y102.556 E0.18046
G1 X112.347 Y102.556 E0.01546
G1 X107.459 Y107.444 E0.18046
G1 X106.867 Y107.444 E0.01546
G1 X111.755 Y102.556 E0.18046
G1 X111.163 Y102.556 E0.01546
G1 X106.275 Y107.444 E0.18046
G1 X105.956 Y107.444 E0.00832
G1 X105.956 Y107.171 E0.00713
G1 X110.571 Y102.556 E0.17037
G1 X109.979 Y102.556 E0.01546
G1 X105.956 Y106.579 E0.14851
G1 X105.956 Y105.987 E0.01546
G1 X109.387 Y102.556 E0.12666
G1 X108.795 Y102.556 E0.01546
G1 X105.956 Y105.395 E0.10480
G1 X105.956 Y104.803 E0.01546
G1 X108.203 Y102.556 E0.08294
G1 X107.610 Y102.556 E0.01546
G1 X105.956 Y104.210 E0.06108
G1 X105.956 Y103.618 E0.01546
G1 X107.018 Y102.556 E0.03922
G1 X106.426 Y102.556 E0.01546
G1 X105.768 Y103.214 E0.02430
;BEFORE_LAYER_CHANGE
G92 E0.0
;0.5


G1 F8640.000
G1 X106.426 Y102.556 E-0.21495
G1 X107.018 Y102.556 E-0.13670
G1 X105.956 Y103.618 E-0.34688
G1 X105.956 Y103.885 E-0.06147
G1 E-0.04000 F2100.00000
G1 Z0.950 F10800.000
;AFTER_LAYER_CHANGE
;0.5
G1 X102.662 Y109.856
G1 Z0.500
G1 E0.80000 F2100.00000
G1 F3000.000
