; generated by PrusaSlicer 2.1.1 on 2020-07-29 at 18:15:44 UTC

; 

; external perimeters extrusion width = 0.45mm
; perimeters extrusion width = 0.45mm
; infill extrusion width = 0.45mm
; solid infill extrusion width = 0.45mm
; top infill extrusion width = 0.40mm
; support material extrusion width = 0.35mm
; first layer extrusion width = 0.42mm

M73 P0 R32
M73 Q0 S32
M201 X1000 Y1000 Z1000 E5000 ; sets maximum accelerations, mm/sec^2
M203 X200 Y200 Z12 E120 ; sets maximum feedrates, mm/sec
M204 P1250 R1250 T1250 ; sets acceleration (P, T) and retract acceleration (R), mm/sec^2
M205 X8.00 Y8.00 Z0.40 E1.50 ; sets the jerk limits, mm/sec
M205 S0 T0 ; sets the minimum extruding and travel feed rate, mm/sec
M107
M862.3 P "MK3S" ; printer model check
M862.1 P0.4 ; nozzle diameter check
M115 U3.8.1 ; tell printer latest fw version
G90 ; use absolute coordinates
M83 ; extruder relative mode
M104 S215 ; set extruder temp
M140 S60 ; set bed temp
M190 S60 ; wait for bed temp
M109 S215 ; wait for extruder temp
G28 W ; home all without mesh bed level
G80 ; mesh bed leveling
G1 Y-3.0 F1000.0 ; go outside print area
G92 E0.0
G1 X60.0 E9.0 F1000.0 ; intro line
M73 Q0 S32
M73 P0 R32
G1 X100.0 E12.5 F1000.0 ; intro line
G92 E0.0
M221 S95
G21 ; set units to millimeters
G90 ; use absolute coordinates
M83 ; use relative distances for extrusion
M900 K30 ; Filament gcode
;BEFORE_LAYER_CHANGE
G92 E0.0
;0.2


G1 E-0.80000 F2100.00000
G1 Z0.600 F10800.000
;AFTER_LAYER_CHANGE
;0.2
G1 X99.128 Y95.680
G1 Z0.200
G1 E0.80000 F2100.00000
M204 S1000
G1 F1200
G1 X99.835 Y95.561 E0.02247
G1 X149.845 Y95.561 E1.56801
G1 X150.661 Y95.720 E0.02608
G1 X151.362 Y96.175 E0.02620
G1 X151.839 Y96.857 E0.02608
G1 X152.028 Y97.667 E0.02608
G1 X152.022 Y112.935 E0.47874
G1 X151.880 Y113.546 E0.01964
G1 X151.568 Y114.093 E0.01976
G1 X151.114 Y114.530 E0.01976
G1 X150.554 Y114.819 E0.01976
G1 X149.847 Y114.938 E0.02247
G1 X99.786 Y114.937 E1.56962
G1 X99.137 Y114.822 E0.02066
G1 X98.549 Y114.516 E0.02078
G1 X98.080 Y114.049 E0.02078
G1 X97.772 Y113.462 E0.02078
G1 X97.653 Y112.766 E0.02213
G1 X97.659 Y97.581 E0.47611
G1 X97.799 Y96.963 E0.01987
G1 X98.109 Y96.411 E0.01987
G1 X98.565 Y95.971 E0.01987
G1 X99.075 Y95.708 E0.01799
G1 F8640
G1 X99.835 Y95.561 E-0.17875
G1 X102.352 Y95.561 E-0.58125
G1 E-0.04000 F2100.00000
G1 Z0.800 F10800.000
G1 X132.488 Y104.832
G1 Z0.200
G1 E0.80000 F2100.00000
G1 F1200
G1 X132.624 Y104.356 E0.01551
G1 X132.837 Y103.948 E0.01444
G1 X133.122 Y103.589 E0.01437
G1 X133.472 Y103.290 E0.01444
G1 X133.905 Y103.050 E0.01550
G1 X134.344 Y102.912 E0.01445
G1 X134.799 Y102.860 E0.01436
G1 X135.256 Y102.896 E0.01436
G1 X135.700 Y103.019 E0.01444
G1 X136.141 Y103.243 E0.01551
G1 X136.501 Y103.530 E0.01444
G1 X136.799 Y103.879 E0.01436
G1 X137.025 Y104.280 E0.01444
G1 X137.178 Y104.750 E0.01551
G1 X137.230 Y105.208 E0.01444
G1 X137.194 Y105.667 E0.01444
G1 X137.058 Y106.142 E0.01551
G1 X136.845 Y106.551 E0.01444
G1 X136.560 Y106.909 E0.01436
G1 X136.210 Y107.209 E0.01444
G1 X135.777 Y107.448 E0.01551
G1 X135.338 Y107.587 E0.01445
G1 X134.883 Y107.639 E0.01436
G1 X134.426 Y107.603 E0.01436
G1 X133.982 Y107.480 E0.01444
G1 X133.541 Y107.255 E0.01551
G1 X133.181 Y106.968 E0.01444
G1 X132.883 Y106.620 E0.01436
G1 X132.657 Y106.219 E0.01444
G1 X132.504 Y105.749 E0.01551
G1 X132.452 Y105.291 E0.01444
G1 X132.483 Y104.892 E0.01256
G1 X132.859 Y104.921 F10800.000
G1 F1200
G1 X132.976 Y104.497 E0.01380
G1 X133.154 Y104.154 E0.01211
G1 X133.394 Y103.852 E0.01209
G1 X133.688 Y103.601 E0.01212
G1 X134.054 Y103.398 E0.01312
G1 X134.423 Y103.282 E0.01212
G1 X134.806 Y103.239 E0.01209
G1 X135.190 Y103.269 E0.01209
G1 X135.563 Y103.372 E0.01212
G1 X135.936 Y103.562 E0.01313
G1 X136.238 Y103.803 E0.01211
G1 X136.488 Y104.096 E0.01209
G1 X136.679 Y104.432 E0.01212
G1 X136.808 Y104.830 E0.01313
G1 X136.852 Y105.214 E0.01211
G1 X136.821 Y105.599 E0.01212
G1 X136.706 Y106.002 E0.01313
G1 X136.528 Y106.345 E0.01211
G1 X136.288 Y106.646 E0.01209
G1 X135.994 Y106.897 E0.01212
G1 X135.628 Y107.100 E0.01312
G1 X135.259 Y107.216 E0.01212
G1 X134.876 Y107.260 E0.01209
G1 X134.492 Y107.230 E0.01209
G1 X134.119 Y107.126 E0.01212
G1 X133.746 Y106.936 E0.01313
G1 X133.444 Y106.696 E0.01211
G1 X133.194 Y106.403 E0.01209
G1 X133.003 Y106.066 E0.01212
G1 X132.874 Y105.668 E0.01313
G1 X132.830 Y105.284 E0.01211
G1 X132.854 Y104.981 E0.00955
G1 X132.552 Y104.664 F10800.000
G1 F8640
G1 X132.976 Y104.497 E-0.11527
G1 X133.154 Y104.154 E-0.08922
G1 X133.394 Y103.852 E-0.08902
G1 X133.688 Y103.601 E-0.08923
G1 X134.054 Y103.398 E-0.09665
G1 X134.423 Y103.282 E-0.08923
G1 X134.806 Y103.239 E-0.08900
G1 X135.190 Y103.269 E-0.08901
G1 X135.246 Y103.284 E-0.01338
G1 E-0.04000 F2100.00000
G1 Z0.800 F10800.000
G1 X117.230 Y105.208
G1 Z0.200
G1 E0.80000 F2100.00000
G1 F1200
G1 X117.194 Y105.667 E0.01444
G1 X117.058 Y106.142 E0.01551
G1 X116.845 Y106.551 E0.01444
G1 X116.560 Y106.909 E0.01436
G1 X116.210 Y107.209 E0.01444
G1 X115.777 Y107.448 E0.01551
G1 X115.338 Y107.587 E0.01445
G1 X114.883 Y107.639 E0.01436
G1 X114.426 Y107.603 E0.01436
G1 X113.982 Y107.480 E0.01444
G1 X113.541 Y107.255 E0.01551
G1 X113.181 Y106.968 E0.01444
G1 X112.883 Y106.620 E0.01436
G1 X112.657 Y106.219 E0.01444
G1 X112.504 Y105.749 E0.01551
G1 X112.452 Y105.291 E0.01444
G1 X112.488 Y104.832 E0.01444
G1 X112.624 Y104.356 E0.01551
G1 X112.837 Y103.948 E0.01444
G1 X113.122 Y103.589 E0.01436
G1 X113.472 Y103.290 E0.01444
G1 X113.905 Y103.050 E0.01550
G1 X114.344 Y102.912 E0.01445
G1 X114.799 Y102.860 E0.01436
G1 X115.256 Y102.896 E0.01436
G1 X115.697 Y103.018 E0.01436
G1 X116.110 Y103.224 E0.01445
G1 X116.499 Y103.528 E0.01550
G1 X116.799 Y103.879 E0.01444
G1 X117.025 Y104.280 E0.01444
G1 X117.178 Y104.750 E0.01551
G1 X117.224 Y105.148 E0.01256
G1 X116.849 Y105.191 F10800.000
G1 F1200
G1 X116.821 Y105.599 E0.01285
G1 X116.706 Y106.002 E0.01313
G1 X116.528 Y106.345 E0.01211
G1 X116.288 Y106.646 E0.01209
G1 X115.994 Y106.897 E0.01212
G1 X115.628 Y107.100 E0.01312
G1 X115.259 Y107.216 E0.01212
G1 X114.876 Y107.260 E0.01209
G1 X114.492 Y107.230 E0.01209
G1 X114.119 Y107.126 E0.01212
G1 X113.746 Y106.936 E0.01313
G1 X113.444 Y106.696 E0.01211
G1 X113.194 Y106.403 E0.01209
G1 X113.003 Y106.066 E0.01212
G1 X112.874 Y105.668 E0.01313
G1 X112.830 Y105.284 E0.01211
G1 X112.861 Y104.899 E0.01212
G1 X112.976 Y104.497 E0.01313
G1 X113.154 Y104.154 E0.01211
G1 X113.394 Y103.852 E0.01209
G1 X113.688 Y103.601 E0.01212
G1 X114.054 Y103.398 E0.01312
G1 X114.423 Y103.282 E0.01212
G1 X114.806 Y103.239 E0.01209
G1 X115.190 Y103.269 E0.01209
G1 X115.562 Y103.372 E0.01209
G1 X115.908 Y103.544 E0.01212
G1 X116.237 Y103.802 E0.01312
G1 X116.488 Y104.096 E0.01212
G1 X116.679 Y104.432 E0.01212
G1 X116.808 Y104.830 E0.01313
G1 X116.842 Y105.131 E0.00949
G1 X117.201 Y105.381 F10800.000
G1 F8640
G1 X116.821 Y105.599 E-0.10827
G1 X116.706 Y106.002 E-0.09666
G1 X116.528 Y106.345 E-0.08922
G1 X116.288 Y106.646 E-0.08901
G1 X115.994 Y106.897 E-0.08923
G1 X115.628 Y107.100 E-0.09665
G1 X115.259 Y107.216 E-0.08923
G1 X114.876 Y107.260 E-0.08900
G1 X114.821 Y107.256 E-0.01273
G1 E-0.04000 F2100.00000
G1 Z0.800 F10800.000
G1 X100.428 Y98.336
G1 Z0.200
G1 E0.80000 F2100.00000
G1 F1200
G1 X149.254 Y98.336 E1.53090
G1 X149.254 Y112.162 E0.43350
G1 X100.428 Y112.162 E1.53090
G1 X100.428 Y98.396 E0.43162
G1 X100.051 Y97.959 F10800.000
G1 F1200
G1 X149.631 Y97.959 E1.55455
G1 X149.631 Y112.539 E0.45715
G1 X100.051 Y112.539 E1.55455
G1 X100.051 Y98.019 E0.45526
G1 X100.449 Y97.997 F10800.000
G1 F8640
G1 X103.342 Y98.015 E-0.76000
G1 E-0.04000 F2100.00000
G1 Z0.800 F10800.000
G1 X100.541 Y111.281
G1 Z0.200
G1 E0.80000 F2100.00000
G1 F1200
G1 X101.139 Y111.879 E0.02669
G1 X101.676 Y111.879 E0.01695
G1 X100.711 Y110.914 E0.04308
G1 X100.711 Y110.377 E0.01695
G1 X102.213 Y111.879 E0.06705
G1 X102.750 Y111.879 E0.01695
G1 X100.711 Y109.841 E0.09101
G1 X100.711 Y109.304 E0.01695
G1 X103.287 Y111.879 E0.11498
G1 X103.823 Y111.879 E0.01695
G1 X100.711 Y108.767 E0.13894
G1 X100.711 Y108.230 E0.01695
G1 X104.360 Y111.879 E0.16290
G1 X104.897 Y111.879 E0.01695
G1 X100.711 Y107.693 E0.18687
G1 X100.711 Y107.156 E0.01695
G1 X105.434 Y111.879 E0.21083
G1 X105.971 Y111.879 E0.01695
G1 X100.711 Y106.620 E0.23480
G1 X100.711 Y106.083 E0.01695
G1 X106.508 Y111.879 E0.25876
G1 X107.044 Y111.879 E0.01695
G1 X100.711 Y105.546 E0.28273
G1 X100.711 Y105.009 E0.01695
G1 X107.581 Y111.879 E0.30669
G1 X108.118 Y111.879 E0.01695
G1 X100.711 Y104.472 E0.33066
G1 X100.711 Y103.935 E0.01695
G1 X108.655 Y111.879 E0.35462
G1 X109.192 Y111.879 E0.01695
G1 X100.711 Y103.398 E0.37859
G1 X100.711 Y102.862 E0.01695
G1 X109.729 Y111.879 E0.40255
G1 X110.266 Y111.879 E0.01695
G1 X100.711 Y102.325 E0.42651
G1 X100.711 Y101.788 E0.01695
G1 X110.802 Y111.879 E0.45048
G1 X111.339 Y111.879 E0.01695
G1 X100.711 Y101.251 E0.47444
G1 X100.711 Y100.714 E0.01695
G1 X111.876 Y111.879 E0.49841
G1 X112.413 Y111.879 E0.01695
G1 X100.711 Y100.177 E0.52237
G1 X100.711 Y99.640 E0.01695
G1 X112.950 Y111.879 E0.54634
G1 X113.487 Y111.879 E0.01695
G1 X100.711 Y99.104 E0.57030
G1 X100.711 Y98.619 E0.01529
G1 X100.763 Y98.619 E0.00165
G1 X114.024 Y111.879 E0.59193
G1 X114.560 Y111.879 E0.01695
G1 X101.300 Y98.619 E0.59193
G1 X101.837 Y98.619 E0.01695
G1 X115.097 Y111.879 E0.59193
G1 X115.634 Y111.879 E0.01695
G1 X102.374 Y98.619 E0.59193
G1 X102.911 Y98.619 E0.01695
G1 X116.171 Y111.879 E0.59193
G1 X116.708 Y111.879 E0.01695
G1 X103.447 Y98.619 E0.59193
G1 X103.984 Y98.619 E0.01695
G1 X117.245 Y111.879 E0.59193
G1 X117.781 Y111.879 E0.01695
G1 X104.521 Y98.619 E0.59193
G1 X105.058 Y98.619 E0.01695
G1 X112.223 Y105.784 E0.31984
G1 X112.168 Y105.296 E0.01551
G1 X112.175 Y105.199 E0.00306
G1 X105.595 Y98.619 E0.29374
G1 X106.132 Y98.619 E0.01695
G1 X112.227 Y104.714 E0.27209
G1 X112.347 Y104.297 E0.01370
G1 X106.669 Y98.619 E0.25347
G1 X107.205 Y98.619 E0.01695
G1 X112.523 Y103.937 E0.23739
G1 X112.598 Y103.793 E0.00513
G1 X112.739 Y103.616 E0.00714
G1 X107.742 Y98.619 E0.22306
G1 X108.279 Y98.619 E0.01695
G1 X112.990 Y103.330 E0.21029
G1 X113.280 Y103.083 E0.01202
G1 X108.816 Y98.619 E0.19925
G1 X109.353 Y98.619 E0.01695
G1 X113.619 Y102.885 E0.19044
G1 X113.793 Y102.789 E0.00626
G1 X113.996 Y102.725 E0.00672
G1 X109.890 Y98.619 E0.18329
G1 X110.427 Y98.619 E0.01695
G1 X114.425 Y102.618 E0.17850
G1 X114.794 Y102.576 E0.01173
G1 X114.931 Y102.587 E0.00432
G1 X110.963 Y98.619 E0.17710
G1 X111.500 Y98.619 E0.01695
G1 X115.848 Y102.967 E0.19408
G1 F8640
G1 X113.521 Y100.639 E-0.76000
G1 E-0.04000 F2100.00000
G1 Z0.800 F10800.000
G1 X114.057 Y107.618
G1 Z0.200
G1 E0.80000 F2100.00000
G1 F1200
G1 X118.318 Y111.879 E0.19024
G1 X118.855 Y111.879 E0.01695
G1 X114.897 Y107.922 E0.17667
G1 X115.379 Y107.867 E0.01531
G1 X119.392 Y111.879 E0.17912
G1 X119.929 Y111.879 E0.01695
G1 X115.790 Y107.741 E0.18475
G1 X115.889 Y107.709 E0.00328
G1 X116.151 Y107.565 E0.00943
G1 X120.466 Y111.879 E0.19261
G1 X121.003 Y111.879 E0.01695
G1 X116.476 Y107.353 E0.20206
G1 X116.765 Y107.105 E0.01202
G1 X121.539 Y111.879 E0.21311
G1 X122.076 Y111.879 E0.01695
G1 X117.003 Y106.806 E0.22645
G1 X117.084 Y106.706 E0.00407
G1 X117.205 Y106.472 E0.00833
G1 X122.613 Y111.879 E0.24140
G1 X123.150 Y111.879 E0.01695
G1 X117.366 Y106.095 E0.25821
G1 X117.478 Y105.670 E0.01387
G1 X123.687 Y111.879 E0.27717
G1 X124.224 Y111.879 E0.01695
G1 X117.510 Y105.166 E0.29968
G1 X117.456 Y104.690 E0.01514
G1 X117.401 Y104.520 E0.00564
G1 X124.761 Y111.879 E0.32853
G1 X125.297 Y111.879 E0.01695
G1 X112.037 Y98.619 E0.59193
M73 Q3 S31
M73 P3 R31
G1 X112.574 Y98.619 E0.01695
G1 X125.834 Y111.879 E0.59193
G1 X126.371 Y111.879 E0.01695
G1 X113.111 Y98.619 E0.59193
G1 X113.648 Y98.619 E0.01695
G1 X126.908 Y111.879 E0.59193
G1 X127.445 Y111.879 E0.01695
G1 X114.184 Y98.619 E0.59193
G1 X114.721 Y98.619 E0.01695
G1 X127.982 Y111.879 E0.59193
G1 X128.518 Y111.879 E0.01695
G1 X115.258 Y98.619 E0.59193
G1 X115.795 Y98.619 E0.01695
G1 X129.055 Y111.879 E0.59193
G1 X129.592 Y111.879 E0.01695
G1 X116.332 Y98.619 E0.59193
G1 X116.869 Y98.619 E0.01695
G1 X130.129 Y111.879 E0.59193
G1 X130.666 Y111.879 E0.01695
G1 X117.406 Y98.619 E0.59193
G1 X117.942 Y98.619 E0.01695
G1 X131.203 Y111.879 E0.59193
G1 X131.740 Y111.879 E0.01695
G1 X118.479 Y98.619 E0.59193
G1 X119.016 Y98.619 E0.01695
G1 X132.276 Y111.879 E0.59193
G1 X132.813 Y111.879 E0.01695
G1 X119.553 Y98.619 E0.59193
G1 X120.090 Y98.619 E0.01695
G1 X133.350 Y111.879 E0.59193
G1 X133.887 Y111.879 E0.01695
G1 X120.627 Y98.619 E0.59193
G1 X121.164 Y98.619 E0.01695
G1 X134.424 Y111.879 E0.59193
G1 X134.961 Y111.879 E0.01695
G1 X121.700 Y98.619 E0.59193
G1 X122.237 Y98.619 E0.01695
G1 X135.498 Y111.879 E0.59193
G1 X136.034 Y111.879 E0.01695
G1 X122.774 Y98.619 E0.59193
G1 X123.311 Y98.619 E0.01695
G1 X136.571 Y111.879 E0.59193
G1 X137.108 Y111.879 E0.01695
G1 X123.848 Y98.619 E0.59193
G1 X124.385 Y98.619 E0.01695
G1 X137.815 Y112.049 E0.59950
G1 F8640
G1 X135.487 Y109.722 E-0.76000
G1 E-0.04000 F2100.00000
G1 Z0.800 F10800.000
G1 X134.111 Y107.809
G1 Z0.200
G1 E0.80000 F2100.00000
G1 F1200
G1 X138.182 Y111.879 E0.18170
G1 X138.719 Y111.879 E0.01695
G1 X134.751 Y107.912 E0.17710
G1 X134.888 Y107.923 E0.00432
G1 X135.257 Y107.881 E0.01173
G1 X139.255 Y111.879 E0.17850
G1 X139.792 Y111.879 E0.01695
G1 X135.686 Y107.773 E0.18329
G1 X135.889 Y107.709 E0.00672
G1 X136.063 Y107.613 E0.00626
G1 X140.329 Y111.879 E0.19044
G1 X140.866 Y111.879 E0.01695
G1 X136.402 Y107.416 E0.19925
G1 X136.692 Y107.169 E0.01202
G1 X141.403 Y111.879 E0.21029
G1 X141.940 Y111.879 E0.01695
G1 X136.943 Y106.882 E0.22306
G1 X137.084 Y106.706 E0.00714
G1 X137.159 Y106.561 E0.00513
G1 X142.477 Y111.879 E0.23739
G1 X143.013 Y111.879 E0.01695
G1 X137.335 Y106.201 E0.25347
G1 X137.455 Y105.784 E0.01370
G1 X143.550 Y111.879 E0.27209
G1 X144.087 Y111.879 E0.01695
G1 X137.507 Y105.299 E0.29374
G1 X137.514 Y105.203 E0.00306
G1 X137.459 Y104.714 E0.01551
G1 X144.624 Y111.879 E0.31984
G1 X145.161 Y111.879 E0.01695
G1 X131.901 Y98.619 E0.59193
G1 X132.437 Y98.619 E0.01695
G1 X145.698 Y111.879 E0.59193
G1 X146.234 Y111.879 E0.01695
G1 X132.974 Y98.619 E0.59193
G1 X133.511 Y98.619 E0.01695
G1 X146.771 Y111.879 E0.59193
G1 X147.308 Y111.879 E0.01695
G1 X134.048 Y98.619 E0.59193
G1 X134.585 Y98.619 E0.01695
G1 X147.845 Y111.879 E0.59193
G1 X148.382 Y111.879 E0.01695
G1 X135.122 Y98.619 E0.59193
G1 X135.658 Y98.619 E0.01695
G1 X148.919 Y111.879 E0.59193
G1 X148.971 Y111.879 E0.00165
G1 X148.971 Y111.395 E0.01529
G1 X136.195 Y98.619 E0.57030
G1 X136.732 Y98.619 E0.01695
G1 X148.971 Y110.858 E0.54634
G1 X148.971 Y110.321 E0.01695
G1 X137.269 Y98.619 E0.52237
G1 X137.806 Y98.619 E0.01695
G1 X148.971 Y109.784 E0.49841
G1 X148.971 Y109.248 E0.01695
G1 X138.343 Y98.619 E0.47444
G1 X138.880 Y98.619 E0.01695
G1 X148.971 Y108.711 E0.45048
G1 X148.971 Y108.174 E0.01695
G1 X139.416 Y98.619 E0.42651
G1 X139.953 Y98.619 E0.01695
G1 X148.971 Y107.637 E0.40255
G1 X148.971 Y107.100 E0.01695
G1 X140.490 Y98.619 E0.37859
G1 X141.027 Y98.619 E0.01695
G1 X148.971 Y106.563 E0.35462
G1 X148.971 Y106.026 E0.01695
G1 X141.564 Y98.619 E0.33066
G1 X142.101 Y98.619 E0.01695
G1 X148.971 Y105.490 E0.30669
G1 X148.971 Y104.953 E0.01695
G1 X142.638 Y98.619 E0.28273
G1 X143.174 Y98.619 E0.01695
G1 X148.971 Y104.416 E0.25876
G1 X148.971 Y103.879 E0.01695
G1 X143.711 Y98.619 E0.23480
G1 X144.248 Y98.619 E0.01695
G1 X148.971 Y103.342 E0.21083
G1 X148.971 Y102.805 E0.01695
G1 X144.785 Y98.619 E0.18687
G1 X145.322 Y98.619 E0.01695
G1 X148.971 Y102.269 E0.16290
G1 X148.971 Y101.732 E0.01695
G1 X145.859 Y98.619 E0.13894
G1 X146.395 Y98.619 E0.01695
G1 X148.971 Y101.195 E0.11498
G1 X148.971 Y100.658 E0.01695
G1 X146.932 Y98.619 E0.09101
G1 X147.469 Y98.619 E0.01695
G1 X148.971 Y100.121 E0.06705
G1 X148.971 Y99.584 E0.01695
G1 X148.006 Y98.619 E0.04308
G1 X148.543 Y98.619 E0.01695
G1 X149.141 Y99.217 E0.02669
G1 F8640
G1 X148.543 Y98.619 E-0.19526
G1 X148.006 Y98.619 E-0.12396
G1 X148.971 Y99.584 E-0.31515
G1 X148.971 Y100.121 E-0.12396
G1 X148.966 Y100.116 E-0.00167
G1 E-0.04000 F2100.00000
