; generated by PrusaSlicer 2.1.1 on 2020-07-29 at 14:36:03 UTC

; 

; external perimeters extrusion width = 0.45mm
; perimeters extrusion width = 0.45mm
; infill extrusion width = 0.45mm
; solid infill extrusion width = 0.45mm
; top infill extrusion width = 0.40mm
; support material extrusion width = 0.35mm
; first layer extrusion width = 0.42mm

M73 P0 R27
M73 Q0 S27
M201 X1000 Y1000 Z1000 E5000 ; sets maximum accelerations, mm/sec^2
M203 X200 Y200 Z12 E120 ; sets maximum feedrates, mm/sec
M204 P1250 R1250 T1250 ; sets acceleration (P, T) and retract acceleration (R), mm/sec^2
M205 X8.00 Y8.00 Z0.40 E1.50 ; sets the jerk limits, mm/sec
M205 S0 T0 ; sets the minimum extruding and travel feed rate, mm/sec
M107
M862.3 P "MK3S" ; printer model check
M862.1 P0.4 ; nozzle diameter check
M115 U3.8.1 ; tell printer latest fw version
G90 ; use absolute coordinates
M83 ; extruder relative mode
M104 S215 ; set extruder temp
M140 S60 ; set bed temp
M190 S60 ; wait for bed temp
M109 S215 ; wait for extruder temp
G28 W ; home all without mesh bed level
G80 ; mesh bed leveling
G1 Y-3.0 F1000.0 ; go outside print area
G92 E0.0
G1 X60.0 E9.0 F1000.0 ; intro line
M73 Q0 S27
M73 P0 R27
G1 X100.0 E12.5 F1000.0 ; intro line
G92 E0.0
M221 S95
G21 ; set units to millimeters
G90 ; use absolute coordinates
M83 ; use relative distances for extrusion
M900 K30 ; Filament gcode
;BEFORE_LAYER_CHANGE
G92 E0.0
;0.2


G1 E-0.80000 F2100.00000
G1 Z0.600 F10800.000
;AFTER_LAYER_CHANGE
;0.2
G1 X111.491 Y82.107
G1 Z0.200
G1 E0.80000 F2100.00000
M204 S1000
G1 F1200
G1 X112.188 Y81.660 E0.02597
G1 X113.005 Y81.504 E0.02608
G1 X138.740 Y81.676 E0.80692
G1 X139.265 Y81.764 E0.01669
G1 X139.756 Y81.978 E0.01680
G1 X140.178 Y82.303 E0.01669
G1 X140.510 Y82.723 E0.01680
G1 X140.744 Y83.254 E0.01817
G1 X140.830 Y83.823 E0.01805
G1 X140.826 Y99.738 E0.49899
G1 X139.174 Y121.106 E0.67199
G1 X139.060 Y121.589 E0.01555
G1 X138.843 Y122.031 E0.01544
G1 X138.532 Y122.413 E0.01544
G1 X138.141 Y122.718 E0.01555
G1 X137.604 Y122.954 E0.01839
G1 X137.027 Y123.038 E0.01828
G1 X112.942 Y123.038 E0.75519
G1 X112.401 Y122.955 E0.01714
G1 X111.901 Y122.743 E0.01703
G1 X111.469 Y122.414 E0.01703
G1 X111.131 Y121.988 E0.01703
G1 X110.896 Y121.451 E0.01839
G1 X110.812 Y120.867 E0.01851
G1 X110.814 Y83.590 E1.16879
G1 X111.010 Y82.781 E0.02608
G1 X111.456 Y82.156 E0.02409
G1 F8640
G1 X112.188 Y81.660 E-0.20418
G1 X113.005 Y81.504 E-0.19208
G1 X114.580 Y81.514 E-0.36374
G1 E-0.04000 F2100.00000
G1 Z0.800 F10800.000
G1 X113.000 Y83.692
G1 Z0.200
G1 E0.80000 F2100.00000
G1 F1200
G1 X113.000 Y96.436 E0.39959
G1 X113.754 Y96.436 E0.02365
G1 X113.754 Y83.862 E0.39427
G1 X114.508 Y83.862 E0.02365
G1 X114.508 Y96.436 E0.39427
G1 X115.262 Y96.436 E0.02365
G1 X115.262 Y83.862 E0.39427
G1 X116.017 Y83.862 E0.02365
G1 X116.017 Y96.436 E0.39427
G1 X116.771 Y96.436 E0.02365
G1 X116.771 Y83.862 E0.39427
G1 X117.525 Y83.862 E0.02365
G1 X117.525 Y96.436 E0.39427
G1 X118.279 Y96.436 E0.02365
G1 X118.279 Y83.862 E0.39427
G1 X119.033 Y83.862 E0.02365
G1 X119.033 Y96.436 E0.39427
G1 X119.787 Y96.436 E0.02365
G1 X119.787 Y83.862 E0.39427
G1 X120.542 Y83.862 E0.02365
G1 X120.542 Y96.436 E0.39427
G1 X121.296 Y96.436 E0.02365
G1 X121.296 Y83.862 E0.39427
G1 X122.050 Y83.862 E0.02365
G1 X122.050 Y96.436 E0.39427
G1 X122.804 Y96.436 E0.02365
G1 X122.804 Y83.862 E0.39427
G1 X123.558 Y83.862 E0.02365
G1 X123.558 Y96.436 E0.39427
G1 X124.312 Y96.436 E0.02365
G1 X124.312 Y83.862 E0.39427
G1 X125.067 Y83.862 E0.02365
G1 X125.067 Y96.436 E0.39427
G1 X125.821 Y96.436 E0.02365
G1 X125.821 Y83.862 E0.39427
G1 X126.575 Y83.862 E0.02365
G1 X126.575 Y96.436 E0.39427
G1 X127.329 Y96.436 E0.02365
G1 X127.329 Y83.862 E0.39427
G1 X128.083 Y83.862 E0.02365
G1 X128.083 Y96.436 E0.39427
G1 X128.837 Y96.436 E0.02365
G1 X128.837 Y83.862 E0.39427
G1 X129.591 Y83.862 E0.02365
G1 X129.591 Y96.436 E0.39427
G1 X130.346 Y96.436 E0.02365
G1 X130.346 Y83.862 E0.39427
G1 X131.100 Y83.862 E0.02365
G1 X131.100 Y96.436 E0.39427
G1 X131.854 Y96.436 E0.02365
G1 X131.854 Y83.862 E0.39427
G1 X132.608 Y83.862 E0.02365
G1 X132.608 Y96.436 E0.39427
G1 X133.362 Y96.436 E0.02365
G1 X133.362 Y83.862 E0.39427
G1 X134.116 Y83.862 E0.02365
G1 X134.116 Y96.436 E0.39427
G1 X134.871 Y96.436 E0.02365
G1 X134.871 Y83.862 E0.39427
G1 X135.625 Y83.862 E0.02365
G1 X135.625 Y96.436 E0.39427
G1 X136.379 Y96.436 E0.02365
G1 X136.379 Y83.862 E0.39427
G1 X137.133 Y83.862 E0.02365
G1 X137.133 Y96.436 E0.39427
G1 X137.171 Y96.436 E0.00120
G1 X137.414 Y96.679 E0.01074
G1 X137.414 Y99.436 E0.08646
G1 X137.887 Y99.436 E0.01485
G1 X137.887 Y83.862 E0.48833
G1 X138.641 Y83.862 E0.02365
G1 X138.641 Y99.606 E0.49365
G1 F8640
G1 X138.641 Y96.315 E-0.76000
G1 E-0.04000 F2100.00000
G1 Z0.800 F10800.000
G1 X132.933 Y113.541
G1 Z0.200
G1 E0.80000 F2100.00000
G1 F1200
G1 X133.384 Y113.781 E0.01600
G1 X133.665 Y114.001 E0.01121
G1 X133.914 Y114.258 E0.01121
G1 X134.199 Y114.681 E0.01600
G1 X134.394 Y115.164 E0.01632
G1 X134.482 Y115.666 E0.01600
G1 X134.482 Y116.034 E0.01153
G1 X134.394 Y116.537 E0.01600
G1 X134.199 Y117.019 E0.01632
G1 X133.908 Y117.451 E0.01632
G1 X133.533 Y117.812 E0.01632
G1 X133.092 Y118.088 E0.01632
G1 X132.602 Y118.266 E0.01632
G1 X132.087 Y118.339 E0.01633
G1 X131.568 Y118.302 E0.01632
G1 X131.067 Y118.159 E0.01633
G1 X130.616 Y117.919 E0.01600
G1 X130.335 Y117.699 E0.01121
G1 X130.086 Y117.442 E0.01121
G1 X129.801 Y117.019 E0.01600
G1 X129.606 Y116.536 E0.01632
G1 X129.518 Y116.034 E0.01600
G1 X129.518 Y115.666 E0.01153
G1 X129.606 Y115.163 E0.01600
G1 X129.801 Y114.681 E0.01632
G1 X130.092 Y114.249 E0.01632
G1 X130.467 Y113.888 E0.01632
G1 X130.908 Y113.612 E0.01632
G1 X131.398 Y113.434 E0.01632
G1 X131.913 Y113.361 E0.01633
G1 X132.432 Y113.398 E0.01632
G1 X132.875 Y113.524 E0.01444
G1 X132.771 Y113.887 F10800.000
G1 F1200
G1 X133.177 Y114.098 E0.01435
G1 X133.412 Y114.282 E0.00935
G1 X133.619 Y114.496 E0.00935
G1 X133.864 Y114.859 E0.01372
G1 X134.029 Y115.268 E0.01384
G1 X134.105 Y115.699 E0.01372
G1 X134.105 Y116.001 E0.00946
G1 X134.029 Y116.432 E0.01372
G1 X133.864 Y116.841 E0.01384
G1 X133.617 Y117.207 E0.01384
G1 X133.300 Y117.514 E0.01383
G1 X132.925 Y117.747 E0.01384
G1 X132.511 Y117.898 E0.01384
G1 X132.074 Y117.960 E0.01384
G1 X131.633 Y117.929 E0.01384
G1 X131.209 Y117.807 E0.01384
G1 X130.823 Y117.602 E0.01372
G1 X130.588 Y117.418 E0.00935
G1 X130.381 Y117.204 E0.00935
G1 X130.136 Y116.841 E0.01372
G1 X129.971 Y116.432 E0.01384
G1 X129.895 Y116.001 E0.01372
G1 X129.895 Y115.699 E0.00946
G1 X129.971 Y115.268 E0.01372
G1 X130.136 Y114.859 E0.01384
G1 X130.383 Y114.493 E0.01384
G1 X130.700 Y114.186 E0.01383
G1 X131.075 Y113.953 E0.01384
G1 X131.489 Y113.802 E0.01384
G1 X131.926 Y113.740 E0.01384
G1 X132.367 Y113.771 E0.01384
G1 X132.714 Y113.870 E0.01132
G1 X133.085 Y113.638 F10800.000
G1 F8640
G1 X133.177 Y114.098 E-0.11926
G1 X133.412 Y114.282 E-0.06882
G1 X133.619 Y114.496 E-0.06887
G1 X133.864 Y114.859 E-0.10105
G1 X134.029 Y115.268 E-0.10191
G1 X134.105 Y115.699 E-0.10106
G1 X134.105 Y116.001 E-0.06968
G1 X134.029 Y116.432 E-0.10107
G1 X133.983 Y116.546 E-0.02828
G1 E-0.04000 F2100.00000
G1 Z0.800 F10800.000
G1 X120.484 Y115.676
G1 Z0.200
G1 E0.80000 F2100.00000
G1 F1200
G1 X120.466 Y116.197 E0.01632
G1 X120.340 Y116.702 E0.01632
G1 X120.112 Y117.170 E0.01632
G1 X119.791 Y117.580 E0.01632
G1 X119.393 Y117.915 E0.01632
G1 X118.942 Y118.154 E0.01600
G1 X118.592 Y118.268 E0.01153
G1 X118.087 Y118.339 E0.01600
G1 X117.568 Y118.302 E0.01632
G1 X117.067 Y118.159 E0.01632
G1 X116.617 Y117.919 E0.01600
G1 X116.327 Y117.693 E0.01153
G1 X115.985 Y117.314 E0.01600
G1 X115.730 Y116.872 E0.01600
G1 X115.604 Y116.526 E0.01153
G1 X115.516 Y116.024 E0.01600
G1 X115.534 Y115.503 E0.01632
G1 X115.660 Y114.998 E0.01632
G1 X115.888 Y114.530 E0.01632
G1 X116.209 Y114.120 E0.01632
G1 X116.607 Y113.785 E0.01632
G1 X117.058 Y113.546 E0.01600
G1 X117.408 Y113.432 E0.01153
G1 X117.913 Y113.361 E0.01600
G1 X118.432 Y113.398 E0.01632
G1 X118.933 Y113.541 E0.01632
G1 X119.383 Y113.781 E0.01600
G1 X119.673 Y114.007 E0.01153
G1 X120.015 Y114.386 E0.01600
G1 X120.270 Y114.828 E0.01600
G1 X120.396 Y115.174 E0.01153
G1 X120.474 Y115.617 E0.01412
G1 X120.102 Y115.683 F10800.000
G1 F1200
G1 X120.091 Y116.144 E0.01446
G1 X119.984 Y116.572 E0.01384
G1 X119.790 Y116.969 E0.01384
G1 X119.519 Y117.317 E0.01384
G1 X119.181 Y117.600 E0.01384
G1 X118.794 Y117.806 E0.01372
G1 X118.507 Y117.899 E0.00946
G1 X118.074 Y117.960 E0.01372
G1 X117.633 Y117.929 E0.01384
G1 X117.209 Y117.807 E0.01384
G1 X116.823 Y117.602 E0.01372
G1 X116.585 Y117.416 E0.00946
G1 X116.292 Y117.091 E0.01372
G1 X116.073 Y116.712 E0.01372
G1 X115.970 Y116.428 E0.00946
G1 X115.894 Y115.997 E0.01372
G1 X115.909 Y115.556 E0.01384
G1 X116.016 Y115.128 E0.01384
G1 X116.210 Y114.731 E0.01384
G1 X116.481 Y114.383 E0.01384
G1 X116.819 Y114.100 E0.01384
G1 X117.206 Y113.894 E0.01372
G1 X117.493 Y113.801 E0.00946
G1 X117.926 Y113.740 E0.01372
G1 X118.367 Y113.771 E0.01384
G1 X118.791 Y113.893 E0.01384
G1 X119.177 Y114.098 E0.01372
G1 X119.415 Y114.284 E0.00946
G1 X119.708 Y114.609 E0.01372
G1 X119.927 Y114.988 E0.01372
G1 X120.030 Y115.272 E0.00946
G1 X120.092 Y115.624 E0.01120
G1 X120.461 Y115.860 F10800.000
G1 F8640
G1 X120.091 Y116.144 E-0.12011
G1 X119.984 Y116.572 E-0.10191
G1 X119.790 Y116.969 E-0.10191
G1 X119.519 Y117.317 E-0.10190
G1 X119.181 Y117.600 E-0.10191
G1 X118.794 Y117.806 E-0.10106
G1 X118.507 Y117.899 E-0.06970
G1 X118.243 Y117.936 E-0.06151
G1 E-0.04000 F2100.00000
G1 Z0.800 F10800.000
G1 X113.587 Y120.263
G1 Z0.200
G1 E0.80000 F2100.00000
G1 F1200
G1 X113.587 Y97.437 E0.71569
G1 X136.413 Y97.437 E0.71569
G1 X136.413 Y120.263 E0.71569
G1 X113.647 Y120.263 E0.71381
G1 X113.210 Y120.640 F10800.000
G1 F1200
G1 X113.210 Y97.060 E0.73933
G1 X136.790 Y97.060 E0.73933
G1 X136.790 Y120.640 E0.73933
G1 X113.270 Y120.640 E0.73745
G1 X113.314 Y120.254 F10800.000
G1 F8640
G1 X113.262 Y117.349 E-0.76000
G1 E-0.04000 F2100.00000
G1 Z0.800 F10800.000
G1 X113.700 Y119.379
G1 Z0.200
G1 E0.80000 F2100.00000
G1 F1200
G1 X114.301 Y119.980 E0.02694
G1 X114.840 Y119.980 E0.01708
G1 X113.870 Y119.010 E0.04349
G1 X113.870 Y118.471 E0.01708
G1 X115.379 Y119.980 E0.06764
G1 X115.918 Y119.980 E0.01708
G1 X113.870 Y117.932 E0.09180
G1 X113.870 Y117.393 E0.01708
G1 X116.457 Y119.980 E0.11596
G1 X116.996 Y119.980 E0.01708
G1 X113.870 Y116.854 E0.14011
G1 X113.870 Y116.315 E0.01708
G1 X117.705 Y120.150 E0.17187
G1 F8640
G1 X115.377 Y117.822 E-0.76000
G1 E-0.04000 F2100.00000
G1 Z0.800 F10800.000
G1 X125.790 Y120.150
G1 Z0.200
G1 E0.80000 F2100.00000
G1 F1200
G1 X120.630 Y114.990 E0.23125
G1 X120.670 Y115.100 E0.00373
G1 X120.768 Y115.667 E0.01821
G1 X125.081 Y119.980 E0.19331
G1 X124.542 Y119.980 E0.01708
G1 X120.749 Y116.188 E0.16997
G1 X120.650 Y116.627 E0.01429
G1 X124.003 Y119.980 E0.15026
G1 X123.464 Y119.980 E0.01708
G1 X120.501 Y117.017 E0.13279
G1 X120.314 Y117.370 E0.01264
G1 X122.925 Y119.980 E0.11699
G1 X122.386 Y119.980 E0.01708
G1 X120.078 Y117.672 E0.10343
G1 X119.996 Y117.777 E0.00423
G1 X119.805 Y117.938 E0.00791
G1 X121.847 Y119.980 E0.09153
G1 X121.308 Y119.980 E0.01708
G1 X119.504 Y118.176 E0.08087
G1 X119.152 Y118.363 E0.01263
G1 X120.769 Y119.980 E0.07248
G1 X120.230 Y119.980 E0.01708
G1 X118.760 Y118.510 E0.06586
G1 X118.656 Y118.544 E0.00348
G1 X118.305 Y118.594 E0.01124
G1 X119.691 Y119.980 E0.06213
G1 X119.152 Y119.980 E0.01708
G1 X117.772 Y118.600 E0.06184
G1 X117.518 Y118.582 E0.00807
G1 X117.094 Y118.461 E0.01399
G1 X118.613 Y119.980 E0.06809
G1 X118.074 Y119.980 E0.01708
G1 X113.870 Y115.776 E0.18842
G1 X113.870 Y115.237 E0.01708
G1 X115.386 Y116.753 E0.06795
G1 X115.330 Y116.600 E0.00517
G1 X115.236 Y116.064 E0.01724
G1 X113.870 Y114.698 E0.06121
G1 X113.870 Y114.159 E0.01708
G1 X115.250 Y115.539 E0.06184
G1 X115.252 Y115.464 E0.00238
G1 X115.344 Y115.095 E0.01206
G1 X113.870 Y113.620 E0.06609
G1 X113.870 Y113.081 E0.01708
G1 X115.490 Y114.701 E0.07262
G1 X115.674 Y114.346 E0.01268
G1 X113.870 Y112.542 E0.08084
G1 X113.870 Y112.003 E0.01708
G1 X115.910 Y114.043 E0.09143
G1 X116.004 Y113.923 E0.00485
G1 X116.180 Y113.775 E0.00730
G1 X113.870 Y111.464 E0.10355
G1 X113.870 Y110.925 E0.01708
G1 X116.479 Y113.534 E0.11691
G1 X116.830 Y113.347 E0.01263
G1 X113.870 Y110.386 E0.13268
G1 X113.870 Y109.847 E0.01708
G1 X117.219 Y113.196 E0.15010
G1 X117.344 Y113.156 E0.00417
G1 X117.671 Y113.110 E0.01048
G1 X113.870 Y109.308 E0.17037
G1 X113.870 Y108.769 E0.01708
G1 X118.199 Y113.098 E0.19400
G1 X118.482 Y113.118 E0.00900
G1 X118.868 Y113.228 E0.01273
G1 X113.870 Y108.230 E0.22400
G1 X113.870 Y107.691 E0.01708
G1 X126.159 Y119.980 E0.55075
G1 X126.698 Y119.980 E0.01708
G1 X113.870 Y107.152 E0.57491
G1 X113.870 Y106.613 E0.01708
G1 X127.237 Y119.980 E0.59906
M73 Q3 S26
M73 P3 R26
G1 X127.776 Y119.980 E0.01708
G1 X113.870 Y106.074 E0.62322
G1 X113.870 Y105.535 E0.01708
G1 X128.315 Y119.980 E0.64738
G1 X128.854 Y119.980 E0.01708
G1 X113.870 Y104.996 E0.67153
G1 X113.870 Y104.457 E0.01708
G1 X129.393 Y119.980 E0.69569
G1 X129.932 Y119.980 E0.01708
G1 X113.870 Y103.918 E0.71984
G1 X113.870 Y103.379 E0.01708
G1 X130.471 Y119.980 E0.74400
G1 X131.010 Y119.980 E0.01708
G1 X113.870 Y102.840 E0.76815
G1 X113.870 Y102.301 E0.01708
G1 X131.718 Y120.150 E0.79991
G1 F8640
G1 X129.391 Y117.822 E-0.76000
G1 E-0.04000 F2100.00000
G1 Z0.800 F10800.000
G1 X136.300 Y98.321
G1 Z0.200
G1 E0.80000 F2100.00000
G1 F1200
G1 X135.699 Y97.720 E0.02694
G1 X135.160 Y97.720 E0.01708
G1 X136.130 Y98.690 E0.04349
G1 X136.130 Y99.229 E0.01708
G1 X134.621 Y97.720 E0.06765
G1 X134.082 Y97.720 E0.01708
G1 X136.130 Y99.768 E0.09180
G1 X136.130 Y100.307 E0.01708
G1 X133.543 Y97.720 E0.11596
G1 X133.004 Y97.720 E0.01708
G1 X136.130 Y100.846 E0.14011
G1 X136.130 Y101.385 E0.01708
G1 X132.465 Y97.720 E0.16427
G1 X131.926 Y97.720 E0.01708
G1 X136.130 Y101.924 E0.18843
G1 X136.130 Y102.463 E0.01708
G1 X131.387 Y97.720 E0.21258
G1 X130.848 Y97.720 E0.01708
G1 X136.130 Y103.002 E0.23674
G1 X136.130 Y103.541 E0.01708
G1 X130.309 Y97.720 E0.26089
G1 X129.770 Y97.720 E0.01708
G1 X136.130 Y104.080 E0.28505
G1 X136.130 Y104.619 E0.01708
G1 X129.231 Y97.720 E0.30920
G1 X128.692 Y97.720 E0.01708
G1 X136.130 Y105.158 E0.33336
G1 X136.130 Y105.697 E0.01708
G1 X128.153 Y97.720 E0.35751
G1 X127.614 Y97.720 E0.01708
G1 X136.130 Y106.236 E0.38167
G1 X136.130 Y106.775 E0.01708
G1 X127.075 Y97.720 E0.40582
G1 X126.536 Y97.720 E0.01708
G1 X136.130 Y107.314 E0.42998
G1 X136.130 Y107.853 E0.01708
G1 X125.997 Y97.720 E0.45414
G1 X125.458 Y97.720 E0.01708
G1 X136.130 Y108.392 E0.47829
G1 X136.130 Y108.931 E0.01708
G1 X124.919 Y97.720 E0.50245
G1 X124.380 Y97.720 E0.01708
G1 X136.130 Y109.470 E0.52660
G1 X136.130 Y110.009 E0.01708
G1 X123.841 Y97.720 E0.55076
G1 X123.302 Y97.720 E0.01708
G1 X136.130 Y110.548 E0.57491
G1 X136.130 Y111.087 E0.01708
G1 X122.763 Y97.720 E0.59907
G1 X122.224 Y97.720 E0.01708
G1 X136.130 Y111.626 E0.62322
G1 X136.130 Y112.165 E0.01708
G1 X121.685 Y97.720 E0.64738
G1 X121.146 Y97.720 E0.01708
G1 X136.130 Y112.704 E0.67153
G1 X136.130 Y113.243 E0.01708
G1 X120.607 Y97.720 E0.69569
G1 X120.068 Y97.720 E0.01708
G1 X136.130 Y113.782 E0.71985
G1 X136.130 Y114.321 E0.01708
G1 X119.529 Y97.720 E0.74400
G1 X118.990 Y97.720 E0.01708
G1 X136.130 Y114.860 E0.76816
G1 X136.130 Y115.399 E0.01708
G1 X118.451 Y97.720 E0.79231
G1 X117.912 Y97.720 E0.01708
G1 X136.130 Y115.938 E0.81647
G1 X136.130 Y116.477 E0.01708
G1 X134.619 Y114.965 E0.06773
G1 X134.667 Y115.085 E0.00410
G1 X134.765 Y115.651 E0.01819
G1 X136.130 Y117.016 E0.06117
G1 X136.130 Y117.555 E0.01708
G1 X134.746 Y116.170 E0.06205
G1 X134.663 Y116.626 E0.01469
G1 X136.130 Y118.094 E0.06577
G1 X136.130 Y118.633 E0.01708
G1 X134.507 Y117.010 E0.07272
G1 X134.450 Y117.153 E0.00488
G1 X134.313 Y117.355 E0.00773
G1 X136.130 Y119.172 E0.08142
G1 X136.130 Y119.711 E0.01708
G1 X134.089 Y117.669 E0.09149
G1 X133.814 Y117.934 E0.01208
G1 X135.861 Y119.980 E0.09170
G1 X135.322 Y119.980 E0.01708
G1 X133.505 Y118.163 E0.08142
G1 X133.165 Y118.363 E0.01248
G1 X134.783 Y119.980 E0.07250
